!!!!SEGMENT: pl-cz--iii-352--001_koperski-maksymilian--salve-regina.krn
!!!cenid: 18xx:904
!!!COM: Koperski, Maksymilian
!!!COM-rismid: pe30060120
!!!CDT: 1812-1886
!!!CNT:
!!!OTL: Salve Regina
!!!PDT: 1836
!!!AGN: Sacred
!!!SMS-siglum: PL-CZ
!!!SMS-shelfmark: III-352
!!!SMS-shelfwork: 001 W
!!!SMS-variant:
!!!SMS-altvar:
!!!NIFC-rismid: 300000597
!!!URL-scan: http://repozytorium.nifc.pl/skany/pl-cz-nut--iii-352
!!!ONB-nifc: UWAGA: Salve Regina i Ave Regina to osobne utwory
**kern	**text	**dynam	**kern	**text	**dynam	**kern	**text	**dynam	**kern	**text	**dynam	**kern	**text	**dynam	**kern	**text	**dynam	**kern	**text	**dynam	**kern	**text	**dynam	**kern	**dynam
*part9	*part9	*part9	*part8	*part8	*part8	*part7	*part7	*part7	*part6	*part6	*part6	*part5	*part5	*part5	*part4	*part4	*part4	*part3	*part3	*part3	*part2	*part2	*part2	*part1	*part1
*staff9	*staff9	*	*staff8	*staff8	*	*staff7	*staff7	*	*staff6	*staff6	*	*staff5	*staff5	*	*staff4	*staff4	*	*staff3	*staff3	*	*staff2	*staff2	*	*staff1	*
*Iempty	*	*	*Iempty	*	*	*Iempty	*	*	*Iempty	*	*	*Iempty	*	*	*Iempty	*	*	*Iempty	*	*	*Iempty	*	*	*Iempty	*
*I"Basſo. b.	*	*	*I"Basſo. a	*	*	*I"Tenore b.	*	*	*I"Tenore a.	*	*	*I"Alto b.	*	*	*I"Alto. a.	*	*	*I"Canto b	*	*	*I"Canto. a	*	*	*I"Puzon	*
*I'B II	*	*	*I'B I	*	*	*I'T II	*	*	*I'T I	*	*	*I'A II	*	*	*I'A I	*	*	*I'C II	*	*	*I'C I	*	*	*I'trb	*
*ICvox	*	*	*ICvox	*	*	*ICvox	*	*	*ICvox	*	*	*ICvox	*	*	*ICvox	*	*	*ICvox	*	*	*ICvox	*	*	*ICbras	*
*clefF4	*	*	*clefF4	*	*	*clefC4	*	*	*clefC4	*	*	*clefC3	*	*	*clefC3	*	*	*clefC1	*	*	*clefC1	*	*	*clefF4	*
*k[f#]	*	*	*k[f#]	*	*	*k[f#]	*	*	*k[f#]	*	*	*k[f#]	*	*	*k[f#]	*	*	*k[f#]	*	*	*k[f#]	*	*	*k[f#]	*
*G:	*	*	*G:	*	*	*G:	*	*	*G:	*	*	*G:	*	*	*G:	*	*	*G:	*	*	*G:	*	*	*G:	*
*M4/4	*	*	*M4/4	*	*	*M4/4	*	*	*M4/4	*	*	*M4/4	*	*	*M4/4	*	*	*M4/4	*	*	*M4/4	*	*	*M4/4	*
*met(c)	*	*	*met(c)	*	*	*met(c)	*	*	*met(c)	*	*	*met(c)	*	*	*met(c)	*	*	*met(c)	*	*	*met(c)	*	*	*met(c)	*
=1	=1	=1	=1	=1	=1	=1	=1	=1	=1	=1	=1	=1	=1	=1	=1	=1	=1	=1	=1	=1	=1	=1	=1	=1	=1
!LO:TX:a:t=4	!	!	!	!	!	!LO:TX:a:t=4	!	!	!LO:TX:a:i:t=Dolce	!	!	!LO:TX:a:t=4	!	!	!LO:TX:a:i:t=Dolce	!	!	!	!	!	!LO:TX:a:t=4	!	!	!LO:TX:t=P:p = p.:global:problem	!
!LO:TX:a:rj:t=Adagio	!	!	!LO:TX:a:rj:t=Adagio	!	!	!LO:TX:a:rj:t=Adagio	!	!	!LO:TX:a:rj:t=Adagio	!	!	!LO:TX:a:rj:t=Adagio	!	!	!LO:TX:a:rj:t=Adagio	!	!	!LO:TX:a:rj:t=Adagio	!	!	!LO:TX:a:rj:t=Adagio	!	!	!LO:TX:a:rj:t=Adagio	!LO:DY:b:rj
00r	.	.	2r	.	.	00r	.	.	4d\	Sal-	.	00r	.	.	4b\	Sal-	.	2r	.	.	00r	.	.	8G\L	p
.	.	.	.	.	.	.	.	.	.	.	.	.	.	.	.	.	.	.	.	.	.	.	.	8G\	.
.	.	.	.	.	.	.	.	.	(16c#X\LL	.	.	.	.	.	(16a#X\LL	.	.	.	.	.	.	.	.	8G\	.
.	.	.	.	.	.	.	.	.	16d\	.	.	.	.	.	16b\	.	.	.	.	.	.	.	.	.	.
.	.	.	.	.	.	.	.	.	16e\	.	.	.	.	.	16cc\	.	.	.	.	.	.	.	.	8G\J	.
.	.	.	.	.	.	.	.	.	16d\JJ)	.	.	.	.	.	16b\JJ)	.	.	.	.	.	.	.	.	.	.
!	!	!	!LO:TX:a:i:t=Dolce	!	!	!	!	!	!	!	!	!	!	!	!	!	!	!LO:TX:a:i:t=Dolce	!	!	!	!	!	!	!
.	.	.	8r	.	.	.	.	.	8B\	-ve	.	.	.	.	8g\	-ve	.	8r	.	.	.	.	.	8G\L	.
.	.	.	8G\L	Sal-	.	.	.	.	8r	.	.	.	.	.	8r	.	.	(8b\L	Sal-	.	.	.	.	8G\	.
.	.	.	8A\J	.	.	.	.	.	4r	.	.	.	.	.	4r	.	.	8cc\J)	.	.	.	.	.	8B\	.
.	.	.	8B\	-ve	.	.	.	.	.	.	.	.	.	.	.	.	.	8dd\	-ve	.	.	.	.	8G\J	.
=2	=2	=2	=2	=2	=2	=2	=2	=2	=2	=2	=2	=2	=2	=2	=2	=2	=2	=2	=2	=2	=2	=2	=2	=2	=2
*	*	*	*	*	*	*	*	*	*	*	*	*	*	*	*	*	*	*	*	*	*	*	*	*tremolo	*
!	!	!	!	!	!	!	!	!	!	!	!	!	!	!	!	!	!	!	!	!	!	!	!	!LO:TX:t=P:problem=kropki nad tremolo	!
.	.	.	2r	.	.	.	.	.	4c\	Sal-	.	.	.	.	4a\	sal-	.	2r	.	.	.	.	.	8D\L	.
.	.	.	.	.	.	.	.	.	.	.	.	.	.	.	.	.	.	.	.	.	.	.	.	8D\	.
.	.	.	.	.	.	.	.	.	16B\LL	.	.	.	.	.	16g#X\LL	.	.	.	.	.	.	.	.	8D\	.
.	.	.	.	.	.	.	.	.	16cn\	.	.	.	.	.	16a\	.	.	.	.	.	.	.	.	.	.
.	.	.	.	.	.	.	.	.	16d\	.	.	.	.	.	16b\	.	.	.	.	.	.	.	.	8D\J	.
.	.	.	.	.	.	.	.	.	16c\JJ	.	.	.	.	.	16a\JJ	.	.	.	.	.	.	.	.	.	.
*	*	*	*	*	*	*	*	*	*	*	*	*	*	*	*	*	*	*	*	*	*	*	*	*Xtremolo	*
.	.	.	8r	.	.	.	.	.	8A\	-ve	.	.	.	.	8f#\	-ve	.	8r	.	.	.	.	.	8D\L	.
*	*	*	*	*ij	*	*	*	*	*	*	*	*	*	*	*	*	*	*	*	*	*	*	*	*	*
.	.	.	8F#\L	Sal-	.	.	.	.	8r	.	.	.	.	.	8r	.	.	(8a\L	Sal-	.	.	.	.	8D\	.
.	.	.	8G\J	.	.	.	.	.	4r	.	.	.	.	.	4r	.	.	8b\J)	.	.	.	.	.	8F#\	.
.	.	.	8A\	-ve	.	.	.	.	.	.	.	.	.	.	.	.	.	8cc\	-ve	.	.	.	.	8D\J	.
=3	=3	=3	=3	=3	=3	=3	=3	=3	=3	=3	=3	=3	=3	=3	=3	=3	=3	=3	=3	=3	=3	=3	=3	=3	=3
.	.	.	2r	.	.	.	.	.	(8.B\L	Sal-	.	.	.	.	8.gn\L	sal-	.	(4.b\	Sal-	.	.	.	.	8G\	.
.	.	.	.	.	.	.	.	.	.	.	.	.	.	.	.	.	.	.	.	.	.	.	.	8r	.
.	.	.	.	.	.	.	.	.	16c\Jk	.	.	.	.	.	16a\Jk	.	.	.	.	.	.	.	.	.	.
.	.	.	.	.	.	.	.	.	(16d\LL	-ve	.	.	.	.	16b\LL	-ve	.	.	.	.	.	.	.	4r	.
.	.	.	.	.	.	.	.	.	16e\JJ)	.	.	.	.	.	16cc\JJ	.	.	.	.	.	.	.	.	.	.
.	.	.	.	.	.	.	.	.	(16f#\LL	Re-	.	.	.	.	16a\LL	Re-	.	8a\)	.	.	.	.	.	.	.
.	.	.	.	.	.	.	.	.	16g\JJ)	.	.	.	.	.	16b\JJ	.	.	.	.	.	.	.	.	.	.
!	!	!	!	!	!	!	!	!	!	!	!	!	!	!	!LO:LB:g=original	!	!	!	!	!	!	!	!	!	!
.	.	.	8B\	Sal-	.	.	.	.	(8.a\L	-gi-	.	.	.	.	8.ff#\L	-gi-	.	4.g\	-ve	.	.	.	.	8D\	.
.	.	.	8c\	-ve	.	.	.	.	.	.	.	.	.	.	.	.	.	.	.	.	.	.	.	8r	.
*	*	*	*	*Xij	*	*	*	*	*	*	*	*	*	*	*	*	*	*	*	*	*	*	*	*	*
.	.	.	.	.	.	.	.	.	.	.	.	.	.	.	8qqa\	.	.	.	.	.	.	.	.	.	.
.	.	.	.	.	.	.	.	.	16g\Jk)	-na	.	.	.	.	16ee\Jk	-na	.	.	.	.	.	.	.	.	.
.	.	.	.	.	.	.	.	.	.	.	.	.	.	.	8qqa\	.	.	.	.	.	.	.	.	.	.
.	.	.	8r	.	.	.	.	.	(16f#\LL	Ma-	.	.	.	.	16dd\LL	Ma-	.	.	.	.	.	.	.	4r	.
.	.	.	.	.	.	.	.	.	16e\JJ)	.	.	.	.	.	16cc\JJ	.	.	.	.	.	.	.	.	.	.
.	.	.	8G#X\	Sal-	.	.	.	.	(16d\LL	-ter	.	.	.	.	16b\LL	-ter	.	8ee\	sal-	.	.	.	.	.	.
.	.	.	.	.	.	.	.	.	16c\JJ))	.	.	.	.	.	16a\JJ	.	.	.	.	.	.	.	.	.	.
!	!	!	!	!	!	!	!	!	!LO:LB:g=original	!	!	!	!	!	!	!	!	!	!	!	!	!	!	!	!
=4	=4	=4	=4	=4	=4	=4	=4	=4	=4	=4	=4	=4	=4	=4	=4	=4	=4	=4	=4	=4	=4	=4	=4	=4	=4
.	.	.	(8.A\L	-ve	.	.	.	.	(16c\LL	mi-	.	.	.	.	(16g\LL	mi-	.	4ee\	-ve	.	.	.	.	8BB/L	<
.	.	.	.	.	.	.	.	.	16B\	.	.	.	.	.	16f#\	.	.	.	.	.	.	.	.	.	.
.	.	.	.	.	.	.	.	.	16d#X\	.	.	.	.	.	16b\	.	.	.	.	.	.	.	.	8C/	.
.	.	.	16B\Jk	.	.	.	.	.	16e\JJ)	.	.	.	.	.	16cc\JJ)	.	.	.	.	.	.	.	.	.	.
.	.	.	8c\L	.	.	.	.	.	(16dn\LL	-se-	.	.	.	.	16a\LL	-se-	.	4ee\	Re-	.	.	.	.	8C/	.
.	.	.	.	.	.	.	.	.	16c\)	.	.	.	.	.	16g\JJ	.	.	.	.	.	.	.	.	.	.
.	.	.	8c#X\J)	.	.	.	.	.	(16B\	-ri-	.	.	.	.	16f#\LL	-ri-	.	.	.	.	.	.	.	8C#X/J	.
.	.	.	.	.	.	.	.	.	16A\JJ)	.	.	.	.	.	16e\JJ	.	.	.	.	.	.	.	.	.	.
!	!	!	!	!	!	!	!	!	!	!	!	!	!	!	!	!	!	!	!	!	!	!	!	!LO:LB:g=original	!
!	!	!	!	!	!	!	!	!	!	!	!	!	!	!	!	!	!	!	!	!	!	!	!	!	!LO:HP:a:rj
.	.	.	8d\	Re-	.	.	.	.	16.G/LL	-cor-	.	.	.	.	16.B\LL	-cor-	.	4dd\	-gi-	.	.	.	.	8D\L	[ >
!	!	!	!	!	!	!	!	!	!LO:N:vis=32	!	!	!	!	!	!LO:N:vis=32	!	!	!	!	!	!	!	!	!	!
.	.	.	.	.	.	.	.	.	64A/LL	-di-	.	.	.	.	64c\LL	-di-	.	.	.	.	.	.	.	.	.
!	!	!	!	!	!	!	!	!	!LO:N:vis=32	!	!	!	!	!	!LO:N:vis=32	!	!	!	!	!	!	!	!	!	!
.	.	.	.	.	.	.	.	.	64G/JJJJ	.	.	.	.	.	64B\JJJJ	.	.	.	.	.	.	.	.	.	.
!	!	!	!	!	!	!	!	!	!LO:SIC:v:s:l=-ae	!	!	!	!	!	!LO:SIC:v:s:l=-ae	!	!	!	!	!	!	!	!	!	!
.	.	.	8d\	-gi-	.	.	.	.	8F#/	-e	.	.	.	.	8A/	-e	.	.	.	.	.	.	.	8D\	.
.	.	.	8D\	-na	.	.	.	.	4r	.	.	.	.	.	4r	.	.	8dd\	-na	.	.	.	.	8D\J	.
.	.	.	8r	.	.	.	.	.	.	.	.	.	.	.	.	.	.	8r	.	.	.	.	.	8r	]
!	!	!	!LO:LB:g=original	!	!	!	!	!	!	!	!	!	!	!	!	!	!	!LO:LB:g=original	!	!	!	!	!	!	!
=5	=5	=5	=5	=5	=5	=5	=5	=5	=5	=5	=5	=5	=5	=5	=5	=5	=5	=5	=5	=5	=5	=5	=5	=5	=5
!	!	!	!LO:TX:a:t=2	!	!	!	!	!	!LO:TX:a:t=2	!	!	!LO:TX:a:i:t=Dolce	!	!	!LO:TX:a:t=2	!	!	!LO:TX:a:t=2	!	!	!LO:TX:a:i:t=Dolce	!	!	!	!LO:DY:b:rj
2r	.	.	0r	.	.	2r	.	.	0r	.	.	4b\	Sal-	.	0r	.	.	0r	.	.	4dd\	Sal-	.	8.G\L	p
.	.	.	.	.	.	.	.	.	.	.	.	.	.	.	.	.	.	.	.	.	.	.	.	16G\K	.
.	.	.	.	.	.	.	.	.	.	.	.	(16a#X\LL	.	.	.	.	.	.	.	.	(16cc#X\LL	.	.	8.G\	.
.	.	.	.	.	.	.	.	.	.	.	.	16b\	.	.	.	.	.	.	.	.	16dd\	.	.	.	.
.	.	.	.	.	.	.	.	.	.	.	.	16cc\	.	.	.	.	.	.	.	.	16ee\	.	.	.	.
.	.	.	.	.	.	.	.	.	.	.	.	16b\JJ)	.	.	.	.	.	.	.	.	16dd\JJ)	.	.	16G\Jk	.
!LO:TX:a:i:t=Dolce	!	!	!	!	!	!LO:TX:a:i:t=Dolce	!	!	!	!	!	!	!	!	!	!	!	!	!	!	!	!	!	!	!
8r	.	.	.	.	.	8r	.	.	.	.	.	8g\	-ve	.	.	.	.	.	.	.	8b\	-ve	.	8G\	.
8G\L	Sal-	.	.	.	.	(8B\L	Sal-	.	.	.	.	8r	.	.	.	.	.	.	.	.	8r	.	.	8r	.
8A\J	.	.	.	.	.	8c\J)	.	.	.	.	.	4r	.	.	.	.	.	.	.	.	4r	.	.	4r	.
8B\	-ve	.	.	.	.	8d\	-ve	.	.	.	.	.	.	.	.	.	.	.	.	.	.	.	.	.	.
=6	=6	=6	=6	=6	=6	=6	=6	=6	=6	=6	=6	=6	=6	=6	=6	=6	=6	=6	=6	=6	=6	=6	=6	=6	=6
2r	.	.	.	.	.	2r	.	.	.	.	.	4a\	sal-	.	.	.	.	.	.	.	4ccn\	sal-	.	8.D\L	.
.	.	.	.	.	.	.	.	.	.	.	.	.	.	.	.	.	.	.	.	.	.	.	.	16D\K	.
.	.	.	.	.	.	.	.	.	.	.	.	16g#X\LL	.	.	.	.	.	.	.	.	16b\LL	.	.	8.D\	.
.	.	.	.	.	.	.	.	.	.	.	.	16a\	.	.	.	.	.	.	.	.	16ccn\	.	.	.	.
.	.	.	.	.	.	.	.	.	.	.	.	16b\	.	.	.	.	.	.	.	.	16dd\	.	.	.	.
.	.	.	.	.	.	.	.	.	.	.	.	16a\JJ	.	.	.	.	.	.	.	.	16cc\JJ	.	.	16D\Jk	.
8r	.	.	.	.	.	8r	.	.	.	.	.	8f#\	-ve	.	.	.	.	.	.	.	8a\	-ve	.	8D\	.
8F#\L	sal-	.	.	.	.	(8A\L	Sal-	.	.	.	.	8r	.	.	.	.	.	.	.	.	8r	.	.	8r	.
8G\J	.	.	.	.	.	8B\J)	.	.	.	.	.	4r	.	.	.	.	.	.	.	.	4r	.	.	4r	.
8A\	-ve	.	.	.	.	8c\	-ve	.	.	.	.	.	.	.	.	.	.	.	.	.	.	.	.	.	.
=7	=7	=7	=7	=7	=7	=7	=7	=7	=7	=7	=7	=7	=7	=7	=7	=7	=7	=7	=7	=7	=7	=7	=7	=7	=7
!	!	!	!	!	!	!	!	!LO:DY:a:rj	!	!	!LO:DY:a:rj	!	!	!LO:DY:a:rj	!	!	!LO:DY:a:rj:t=for	!	!	!	!	!	!	!	!LO:HP:a:rj
2r	.	.	8r	.	.	(4.B\	Sal-	<	8B\L	Sal-	f	4.gn\	Sal-	<	4.gn\	sal-	f	(8dd\L	Sal-	f	(8dd\L	Sal-	.	8G\	<
!	!	!	!	!	!LO:DY:a:rj	!	!	!	!	!	!	!	!	!	!	!	!	!	!	!	!	!	!	!	!
.	.	.	4r	.	f	.	.	.	32g\LL	.	.	.	.	.	.	.	.	8gg\	.	.	8gg\	.	.	4r	.
.	.	.	.	.	.	.	.	.	32f#\	.	.	.	.	.	.	.	.	.	.	.	.	.	.	.	.
.	.	.	.	.	.	.	.	.	32g\	.	.	.	.	.	.	.	.	.	.	.	.	.	.	.	.
.	.	.	.	.	.	.	.	.	32a\JJJ	.	.	.	.	.	.	.	.	.	.	.	.	.	.	.	.
.	.	.	.	.	.	.	.	.	8b\	-ve	.	.	.	.	.	.	.	8bb\J)	-ve	.	8bb\J)	-ve	.	.	.
.	.	.	8B\	Sal-	.	8A\)	.	.	8d#X\	Re-	.	8f#\	-ve	.	8f#\	-ve	.	8dd#X\	Re-	.	8dd#X\	re-	.	8B\	.
!	!	!LO:DY:a:rj	!	!	!	!	!	!	!	!	!	!	!	!	!	!	!	!	!	!	!	!	!	!	!
8B\	sal-	<	8c\	-ve	.	4.G\	-ve	.	8.e\L	-gi-	.	4e\	Re-	.	4e\	Re-	.	8.ee\L	-gi-	.	(8.ee\L	-gi-	.	8c\	.
8c\	-ve	.	4r	.	.	.	.	.	.	.	.	.	.	.	.	.	.	.	.	.	.	.	.	4r	.
.	.	.	.	.	.	.	.	.	16f#\Jk	.	.	.	.	.	.	.	.	16ff#\Jk	.	.	16ff#\Jk)	.	.	.	.
8r	.	.	.	.	.	.	.	.	8g\	-na	.	8e\	-gi-	.	8e\	-gi-	.	8gg\	-na	.	8gg\	-na	.	.	.
8G#X\	sal-	.	8G#X\	Sal-	.	8e\	Sal-	.	8B\	ma-	.	8d\	-na	.	8d\	-na	.	8b\	Ma-	.	8b\	Ma-	.	8G#X\	.
!	!	!	!	!	!	!	!	!	!	!	!	!LO:LB:g=original	!	!	!	!	!	!	!	!	!LO:LB:g=original	!	!	!LO:LB:g=original	!
=8	=8	=8	=8	=8	=8	=8	=8	=8	=8	=8	=8	=8	=8	=8	=8	=8	=8	=8	=8	=8	=8	=8	=8	=8	=8
(8.A\L	-ve	.	(8.A\L	-ve	.	4e\	-ve	.	8.c\L	-ter	.	8.e\	Ma-	.	8.e\	Ma-	.	(8.cc\	-ter	.	(8.cc\	-ter	.	(8.A\L	.
16B\Jk	.	.	16B\Jk	.	.	.	.	.	16d\Jk	.	.	16g#X\	-ter	.	16g#X\	-ter	.	16dd\)	.	.	16dd\)	.	.	16B\Jk)	.
!	!	!	!	!	!	!	!	!	!	!	!	!	!	!	!LO:LB:g=original	!	!	!	!	!	!	!	!	!	!
*	*ij	*	*	*	*	*	*	*	*	*	*	*	*	*	*	*	*	*	*	*	*	*	*	*	*
8c\L	sal-	.	8.c\L	.	.	4e\	Re-	.	16e\LL	mi-	.	16a\LL	mi-	.	16a\LL	mi-	.	16ee\LL	mi-	.	(16ee\LL	mi-	.	8c\L	.
.	.	.	.	.	.	.	.	.	16d\JJ	.	.	16b\JJ	.	.	16b\JJ	.	.	16dd\JJ	.	.	16dd\JJ)	.	.	.	.
8c#X\J)	-ve	.	.	.	.	.	.	.	16c\	-se-	.	16a\	-se-	.	16a\	-se-	.	16cc\	-se-	.	16cc\	-se-	.	8c#X\J	.
*	*Xij	*	*	*	*	*	*	*	*	*	*	*	*	*	*	*	*	*	*	*	*	*	*	*	*
.	.	.	16c#X\Jk)	.	.	.	.	.	16B\	-ri-	.	16gn\	-ri-	.	16gn\	-ri-	.	16b\	-ri-	.	16b\	-ri-	.	.	.
!LO:LB:g=original	!	!	!	!	!	!	!	!	!LO:LB:g=original	!	!	!	!	!	!	!	!	!	!	!	!	!	!	!	!
8d\	Re-	.	8d\	Re-	.	4d\	-gi-	.	8.B\	-cor-	.	8.g\	-cor-	.	8.g\	-cor-	.	8.b\	-cor-	.	8.b\	-cor-	.	8d\L	.
!	!	!	!LO:SIC:v:s=16c#	!	!	!	!	!	!	!	!	!	!	!	!	!	!	!	!	!	!	!	!	!	!
8D\	-gi-	.	16B\LL	-gi-	.	.	.	.	.	.	.	.	.	.	.	.	.	.	.	.	.	.	.	8d\	.
.	.	.	16d\JJ	.	.	.	.	.	16B\	-di-	.	16g\	-di-	.	16g\	-di-	.	16b\	-di-	.	16b\	-di-	.	.	.
!	!	!	!	!	!	!	!	!	!LO:SIC:v:s:l=-ae	!	!	!LO:SIC:v:s:l=-ae	!	!	!LO:SIC:v:s:l=-ae	!	!	!LO:SIC:v:s:l=-ae	!	!	!LO:SIC:v:s:l=-ae	!	!	!	!
8D\	-na	.	8D\	-na	.	8d\	-na	.	8A\	-e	.	8f#\	-e	.	8f#\	-e	.	8a\	-e	.	8a\	-e	.	8D\J	.
8r	.	.	8r	.	.	8r	.	.	8r	.	.	8r	.	.	8r	.	.	8r	.	.	8r	.	.	8r	.
!	!	!	!	!	!	!LO:LB:g=original	!	!	!	!	!	!	!	!	!	!	!	!	!	!	!	!	!	!	!
=9	=9	=9	=9	=9	=9	=9	=9	=9	=9	=9	=9	=9	=9	=9	=9	=9	=9	=9	=9	=9	=9	=9	=9	=9	=9
!	!	!LO:DY:a:rj	!	!	!LO:DY:a:rj	!	!	!LO:DY:a:rj	!	!	!	!	!	!LO:DY:a:rj	!	!	!LO:DY:a:rj	!	!	!LO:DY:a:rj	!	!	!LO:DY:a:rj	!LO:TX:t=P:problem=mixed beam	!LO:DY:a:rj
4A\	vi-	p	8r	.	p	4e\	Vi-	p	2r	.	.	4g\	vi-	p	8r	.	p	8r	.	p	4cc#X\	Vi-	p	8AA/L	p
.	.	.	8A\	Vi-	.	.	.	.	.	.	.	.	.	.	8g\	vi-	.	8cc#X\	Vi-	.	.	.	.	8A\	.
!	!	!	!	!	!	!	!	!	!	!	!	!	!	!	!	!	!	!LO:LB:g=original	!	!	!	!	!	!	!
8G\	-ta	.	16G\	-ta	.	8e\	-ta	.	.	.	.	8g\	-ta	.	16g\	-ta	.	16dd\	-ta	.	16dd\LL	-ta	.	8A\	.
.	.	.	16G\	dul-	.	.	.	.	.	.	.	.	.	.	16g\	dul-	.	16cc#\	dul-	.	16cc#\JJ	.	.	.	.
8G\	dul-	.	16F#\	-ce-	.	8e\	dul-	.	.	.	.	8g\	dul-	.	16f#\	-ce-	.	16b\	-ce-	.	16b\LL	dul-	.	8A\J	.
.	.	.	16D\	-do	.	.	.	.	.	.	.	.	.	.	16f#\	-do	.	16cc#\	-do	.	16cc#\JJ	.	.	.	.
!	!	!	!	!	!	!	!	!	!LO:TX:a:i:t=Dolce	!	!	!	!	!	!	!	!	!	!	!LO:DY:a:rj:t=for	!LO:SIC:v:s:l=-ce-	!	!	!	!
8F#\	-ce-	.	4r	.	.	8A\	-ce-	.	4r	.	.	8f#\	-ce-	.	4r	.	.	4r	.	f	8dd\	-ec-	.	8D\L	.
8D\	-do	.	.	.	.	8A\	-do	.	.	.	.	8f#\	-do	.	.	.	.	.	.	.	8dd\	-do	.	8d\	.
!	!	!	!	!	!	!	!	!	!	!	!	!	!	!	!	!	!LO:DY:a:rj	!	!	!	!	!	!	!	!
4r	.	.	8F#\	ce-	.	4r	.	.	16r	.	.	4r	.	.	8f#\	ce-	f	8dd\	ce-	.	4r	.	.	8D\J	.
.	.	.	.	.	.	.	.	.	16A\LL	et	.	.	.	.	.	.	.	.	.	.	.	.	.	.	.
.	.	.	8d\	-do	.	.	.	.	16d\JJ	.	.	.	.	.	8f#\	-do	.	8dd\	-do	.	.	.	.	8r	.
.	.	.	.	.	.	.	.	.	16f#\	spes	.	.	.	.	.	.	.	.	.	.	.	.	.	.	.
!	!	!	!LO:LB:g=original	!	!	!	!	!	!	!	!	!	!	!	!	!	!	!	!	!	!	!	!	!	!
=10	=10	=10	=10	=10	=10	=10!|:	=10	=10	=10	=10	=10	=10	=10	=10	=10	=10	=10	=10	=10	=10	=10	=10	=10	=10	=10
!	!	!	!	!	!	!	!	!	!	!	!	!	!	!	!	!	!LO:DY:a:rj	!	!	!LO:DY:a:rj	!	!	!LO:DY:a:rj	!LO:TX:t=P:problem=mixed beam	!
8.A\	et	.	8r	.	.	8.c#X\	et	.	16g\LL	no-	.	8.a\	et	.	8r	.	p	8r	.	p	8.gg\	et	p	8AA/L	.
.	.	.	.	.	.	.	.	.	16f#\JJ	.	.	.	.	.	.	.	.	.	.	.	.	.	.	.	.
.	.	.	16.A\	et	.	.	.	.	16e\LL	-stra	.	.	.	.	16.a\	et	.	16.gg\	et	.	.	.	.	8A\	.
16A\	spes	.	.	.	.	16c#\	spes	.	16d\JJ	.	.	16a\	spes	.	.	.	.	.	.	.	16gg\	spes	.	.	.
.	.	.	32A\	spes	.	.	.	.	.	.	.	.	.	.	32a\	spes	.	32gg\	spes	.	.	.	.	.	.
8A\	no-	.	8A\	no-	.	8c#\	no-	.	16c#X\LL	sal-	.	8a\	no-	.	8a\	no-	.	8gg\	no-	.	8gg\	no-	.	8A\	.
.	.	.	.	.	.	.	.	.	16B\	.	.	.	.	.	.	.	.	.	.	.	.	.	.	.	.
8A\	-stra	.	8A\	-stra	.	16d\LL	-stra	.	16A\	.	.	16b\LL	-stra	.	16b\LL	-stra	.	8gg\	-stra	.	8gg\	-stra	.	8A\J	.
.	.	.	.	.	.	16e\JJ	.	.	16G\JJ	.	.	16cc#X\JJ	.	.	16cc#X\JJ	.	.	.	.	.	.	.	.	.	.
8d\	sal-	.	4r	.	.	8A\	Sal-	.	8F#\	-ve	.	8dd\	sal-	.	4r	.	.	4r	.	.	8ff#\	sal-	.	8D\L	.
8d\	-ve	.	.	.	.	8A\	-ve	.	4f#\ 4a\	et	.	8dd\	-ve	.	.	.	.	.	.	.	8ff#\	-ve	.	8d\	.
!	!	!	!	!	!LO:DY:a:rj	!	!	!	!	!	!	!	!	!	!	!	!LO:DY:a:rj	!	!	!LO:DY:a:rj:t=fo	!	!	!	!	!
4r	.	.	8D\	Sal-	f	4r	.	.	.	.	.	4r	.	.	8dd\	sal-	f	8ff#\	sal-	f	4r	.	.	8D\J	.
.	.	.	8d\	-ve	.	.	.	.	16gn\LL	spes	.	.	.	.	8dd\	-ve	.	8ff#\	-ve	.	.	.	.	8r	.
.	.	.	.	.	.	.	.	.	16f#\JJ	.	.	.	.	.	.	.	.	.	.	.	.	.	.	.	.
!	!	!	!	!	!	!	!	!	!	!	!	!LO:LB:g=original	!	!	!LO:LB:g=original	!	!	!	!	!	!LO:LB:g=original	!	!	!	!
=11	=11	=11	=11	=11	=11	=11:|!	=11	=11	=11	=11	=11	=11	=11	=11	=11	=11	=11	=11	=11	=11	=11	=11	=11	=11	=11
!	!	!	!	!	!LO:DY:a	!LO:TX:t=P:problem=takt 11 zapisany repetycją 	!	!	!	!	!	!	!	!	!	!	!LO:DY:a:rj	!	!	!LO:DY:a:rj	!	!	!	!LO:TX:t=P:problem=mixed beam	!
8.A\	et	.	8r	.	p	8.c#X\yy	et	.	16g\LL	no-	.	8.a\	et	.	8r	.	p	8r	.	p	8.gg\	et	.	8AA/L	.
.	.	.	.	.	.	.	.	.	16f#\JJ	.	.	.	.	.	.	.	.	.	.	.	.	.	.	.	.
.	.	.	16.A\	et	.	.	.	.	16e\LL	-stra	.	.	.	.	16.a\	et	.	16.gg\	et	.	.	.	.	8A\	.
16A\	spes	.	.	.	.	16c#\yy	spes	.	16d\JJ	.	.	16a\	spes	.	.	.	.	.	.	.	16gg\	spes	.	.	.
.	.	.	32A\	spes	.	.	.	.	.	.	.	.	.	.	32a\	spes	.	32gg\	spes	.	.	.	.	.	.
8A\	no-	.	8A\	no-	.	8c#\yy	no-	.	16c#X\LL	sal-	.	8a\	no-	.	8a\	no-	.	8gg\	no-	.	8gg\	no-	.	8A\	.
.	.	.	.	.	.	.	.	.	16B\	.	.	.	.	.	.	.	.	.	.	.	.	.	.	.	.
8A\	-stra	.	8A\	-stra	.	16d\LLyy	-stra	.	16A\	.	.	16b\LL	-stra	.	(16b\LL	-stra	.	8gg\	-stra	.	8gg\	-stra	.	8A\J	.
.	.	.	.	.	.	16e\JJyy	.	.	16G\JJ	.	.	16cc#X\JJ	.	.	16cc#X\JJ)	.	.	.	.	.	.	.	.	.	.
!	!	!	!	!	!LO:DY:a:rj	!	!	!	!	!	!	!	!	!	!	!	!LO:DY:a:rj	!	!	!LO:DY:a:rj:t=for	!	!	!	!	!
8d\	sal-	.	4r	.	f	8A\yy	Sal-	.	8F#/	-ve	.	8dd\	sal-	.	4r	.	f	4r	.	f	8ff#\	Sal-	.	8D\L	.
8d\	-ve	.	.	.	.	8A\yy	-ve	.	4f#\ 4a\	et	.	8dd\	-ve	.	.	.	.	.	.	.	8ff#\	-ve	.	8D\J	.
4r	.	.	8D\	Sal-	.	4ryy	.	.	.	.	.	4r	.	.	8dd\	Sal-	.	8ff#\	sal-	.	4r	.	.	8r	.
.	.	.	8d\	-ve	.	.	.	.	16gn\LL	spes	.	.	.	.	8dd\	-ve	.	8ff#\	-ve	.	.	.	.	8D\	.
.	.	.	.	.	.	.	.	.	16f#\JJ	.	.	.	.	.	.	.	.	.	.	.	.	.	.	.	.
!LO:LB:g=original	!	!	!	!	!	!	!	!	!LO:LB:g=original	!	!	!	!	!	!	!	!	!LO:LB:g=original	!	!	!	!	!	!LO:LB:g=original	!
=12	=12	=12	=12	=12	=12	=12	=12	=12	=12	=12	=12	=12	=12	=12	=12	=12	=12	=12	=12	=12	=12	=12	=12	=12	=12
!	!	!	!	!	!LO:DY:a:rj	!LO:SIC:v:s=4c#	!	!	!	!	!	!	!	!	!	!	!LO:DY:a:rj	!	!	!LO:DY:a:rj:t=p.	!	!	!	!LO:TX:t=P:problem=mixed beam	!
4A\	Ad	.	8r	.	p	4c\	Ad	.	16g\LL	no-	.	4a\	ad	.	8r	.	p	8r	.	p	4gg\	Ad	.	8AA/L	.
.	.	.	.	.	.	.	.	.	16f#\JJ	.	.	.	.	.	.	.	.	.	.	.	.	.	.	.	.
.	.	.	8A\	Ad	.	.	.	.	16e\LL	-stra	.	.	.	.	8a\	Ad	.	8gg\	Ad	.	.	.	.	8A\	.
.	.	.	.	.	.	.	.	.	16d\JJ	.	.	.	.	.	.	.	.	.	.	.	.	.	.	.	.
!	!	!	!	!	!	!LO:SIC:v:s=8c#	!	!	!	!	!	!	!	!	!	!	!	!	!	!	!	!	!	!	!
8A\	te	.	8A\	te	.	8c\	te	.	16c#X\LL	sal-	.	8a\	te	.	8a\	te	.	8gg\	te	.	8gg\	te	.	8A\	.
.	.	.	.	.	.	.	.	.	16B\	.	.	.	.	.	.	.	.	.	.	.	.	.	.	.	.
8A\	Cla-	.	8A\	cla-	.	16d\LL	cla-	.	16A\	.	.	16b\LL	cla-	.	16b\LL	cla-	.	8gg\	cla-	.	8gg\	cla-	.	8A\J	.
.	.	.	.	.	.	16e\JJ	.	.	16G\JJ	.	.	16cc#X\JJ	.	.	16cc#X\JJ	.	.	.	.	.	.	.	.	.	.
8d\	-ma-	.	8d\	-ma-	.	8A\	-ma-	.	16F#\	-ve	.	8dd\	-ma-	.	8dd\	-ma-	.	8ff#\	-ma-	.	8ff#\	-ma-	.	8D\L	.
.	.	.	.	.	.	.	.	.	16d\	ad	.	.	.	.	.	.	.	.	.	.	.	.	.	.	.
8D\	-mus	.	8D\	-mus	.	8A\	-mus	.	16d\	te	.	8dd\	-mus	.	8dd\	-mus	.	8ff#\	-mus	.	8ff#\	-mus	.	8D\J	.
.	.	.	.	.	.	.	.	.	16d\	cla-	.	.	.	.	.	.	.	.	.	.	.	.	.	.	.
8r	.	.	8r	.	.	8r	.	.	8d\L	-ma-	.	8r	.	.	8r	.	.	8r	.	.	8r	.	.	8r	.
!	!	!	!	!	!LO:DY:a:rj	!	!	!	!	!	!	!	!	!	!	!	!	!	!	!	!	!	!	!	!
8E\	e-	.	8E\	e-	f	8A\	e-	.	16e\L	.	.	8f#\	e-	.	8f#\	e-	.	8dd\	e-	.	8dd\	e-	.	8D\	.
.	.	.	.	.	.	.	.	.	16d\JJ	.	.	.	.	.	.	.	.	.	.	.	.	.	.	.	.
!	!	!	!LO:LB:g=original	!	!	!LO:LB:g=original	!	!	!	!	!	!	!	!	!	!	!	!	!	!	!	!	!	!	!
=13	=13	=13	=13	=13	=13	=13	=13	=13	=13	=13	=13	=13	=13	=13	=13	=13	=13	=13	=13	=13	=13	=13	=13	=13	=13
8E\	-xu-	.	8E\	-xu-	.	8A\	-xu-	.	16d\	-muſ	.	8g\	-xu-	.	8g\	-xu-	.	8dd\	-xu-	.	8dd\	-xu-	.	8E\L	.
.	.	.	.	.	.	.	.	.	16d\	ad	.	.	.	.	.	.	.	.	.	.	.	.	.	.	.
8E\	-les	.	8E\	-les	.	8A\	-les	.	16d\	te	.	8g\	-les	.	8g\	-les	.	8dd\	-les	.	8dd\	-lus	.	8E\J	.
.	.	.	.	.	.	.	.	.	16d\	su-	.	.	.	.	.	.	.	.	.	.	.	.	.	.	.
8r	.	.	8r	.	.	8r	.	.	8d\	-spi-	.	8r	.	.	8r	.	.	8r	.	.	8r	.	.	8r	.
!	!	!	!	!	!LO:DY:a:rj	!	!	!	!	!	!	!	!	!	!	!	!	!	!	!	!	!	!	!	!
16E\	fi-	.	16E\	fi-	p	16A\	fi-	.	16e\LL	-ra-	.	16g\	fi-	.	16g\	fi-	.	16dd\	fi-	.	16dd\	fi-	.	8D\	.
16E\	-li	.	16E\	-li	.	16A\	-li	.	16d\JJ	-muſ	.	16g\	-li	.	16g\	-li	.	16dd\	-li	.	16dd\	-li	.	.	.
8F#\	e-	.	8F#\	e-	.	8d\	e-	.	16d\	ge-	.	8a\	e-	.	8a\	e-	.	8dd\	e-	.	8dd\	e-	.	8F#\L	.
.	.	.	.	.	.	.	.	.	16d\	-men-	.	.	.	.	.	.	.	.	.	.	.	.	.	.	.
!LO:SIC:v:s:l=-vae	!	!	!LO:SIC:v:s:l=-vae	!	!	!LO:SIC:v:s:l=-vae	!	!	!	!	!	!LO:SIC:v:s:l=-vae	!	!	!LO:SIC:v:s:l=-vae	!	!	!LO:SIC:v:s:l=-vae	!	!	!LO:SIC:v:s:l=-vae	!	!	!	!
8F#\	-ve	.	8F#\	-ve	.	8d\	-ve	.	16d\	-tes	.	8a\	-ve	.	8a\	-ve	.	8dd\	-ve	.	8dd\	-ve	.	8F#\J	.
.	.	.	.	.	.	.	.	.	16d\	et	.	.	.	.	.	.	.	.	.	.	.	.	.	.	.
8r	.	.	8r	.	.	8r	.	.	8d\	flen-	.	8r	.	.	8r	.	.	8r	.	.	8r	.	.	8r	.
16F#\	ad	.	16F#\	ad	.	16d\	ad	.	16e\LL	-tes	.	16a\	ad	.	16a\	ad	.	16dd\	ad	.	16dd\	ad	.	8F#\	.
16F#\	te	.	16F#\	te	.	16d\	te	.	16d\JJ	.	.	16a\	te	.	16a\	te	.	16dd\	te	.	16dd\	te	.	.	.
!	!	!	!	!	!	!	!	!	!LO:LB:g=original	!	!	!LO:LB:g=original	!	!	!LO:LB:g=original	!	!	!	!	!	!LO:LB:g=original	!	!	!	!
=14	=14	=14	=14	=14	=14	=14	=14	=14	=14	=14	=14	=14	=14	=14	=14	=14	=14	=14	=14	=14	=14	=14	=14	=14	=14
8G\	Cla-	.	8G\	cla-	.	8e\	Cla-	.	16r	.	.	8b\	cla-	.	8b\	cla-	.	16r	.	.	8ee\	cla-	.	8.G\L	.
!	!	!	!	!	!	!	!	!	!LO:TX:a:t=cis	!	!	!	!	!	!	!	!	!	!	!	!	!	!	!	!
.	.	.	.	.	.	.	.	.	16c#X\	Cla-	.	.	.	.	.	.	.	16ee\	Cla-	.	.	.	.	.	.
!	!	!	!	!	!	!	!	!	!LO:TX:a:t=cis	!	!	!	!	!	!	!	!	!	!	!	!	!	!	!	!
4G\	-ma-	.	4G\	-ma-	.	4e\	-ma-	.	16c#\	-ma-	.	4b\	-ma-	.	4b\	-ma-	.	16ee\	-ma-	.	4ee\	-ma-	.	.	.
!	!	!	!	!	!	!	!	!	!LO:TX:a:t=cis	!	!	!	!	!	!	!	!	!	!	!	!	!	!	!	!
.	.	.	.	.	.	.	.	.	16c#\	-mus	.	.	.	.	.	.	.	16ee\	-mus	.	.	.	.	16G\K	.
!	!	!	!	!	!	!	!	!	!LO:TX:a:t=cis	!	!	!	!	!	!	!	!	!	!	!	!	!	!	!	!
.	.	.	.	.	.	.	.	.	16c#\LL	e-	.	.	.	.	.	.	.	(16ee\LL	e-	.	.	.	.	8.G\	.
.	.	.	.	.	.	.	.	.	16g\JJ	.	.	.	.	.	.	.	.	16bb\JJ)	.	.	.	.	.	.	.
8G\	-mus	.	8G\	-mus	.	8e\	-mus	.	(16g\LL	-xu-	.	8b\	-mus	.	8b\	-mus	.	(16bb\LL	-xu-	.	8ee\	-mus	.	.	.
.	.	.	.	.	.	.	.	.	16f#\JJ)	.	.	.	.	.	.	.	.	16aa\JJ)	.	.	.	.	.	16G\Jk	.
!LO:LB:g=original	!	!	!	!	!	!	!	!	!	!	!	!	!	!	!	!	!	!LO:LB:g=original	!	!	!	!	!	!	!
8G\	e-	.	8G\	e-	.	8e\	e-	.	(16f#\LL	-les	.	8b\	e-	.	8b\	e-	.	(16aa\LL	-les	.	8ee\	e-	.	8.G\L	.
.	.	.	.	.	.	.	.	.	16e\JJ)	.	.	.	.	.	.	.	.	16gg\JJ)	.	.	.	.	.	.	.
16G\	-xu-	.	16G\	-xu-	.	16e\	-xu-	.	(16e\LL	.	.	16b\	-xu-	.	16b\	-xu-	.	(16gg\LL	.	.	16ee\	-xu-	.	.	.
16G\	-les	.	16G\	-les	.	16e\	-les	.	16d\JJ)	.	.	16b\	-les	.	16b\	-les	.	16ff#\JJ)	.	.	16ee\	-les	.	16G\K	.
8G\	fi-	.	8G\	fi-	.	8e\	Fi-	.	(16d\LL	fi-	.	8b\	fi-	.	8b\	fi-	.	(16ff#\LL	fi-	.	8ee\	fi-	.	8.G\	.
.	.	.	.	.	.	.	.	.	16c#X\JJ)	.	.	.	.	.	.	.	.	16ee\JJ)	.	.	.	.	.	.	.
8G#X\	-li	.	8G#X\	-li	.	8e\	-li	.	16c#\LL	-li	.	8b\	-li	.	8b\	-li	.	16ee\LL	-li	.	16ee\LL	-li	.	.	.
.	.	.	.	.	.	.	.	.	16B\JJ	.	.	.	.	.	.	.	.	16dd\JJ	.	.	16dd\JJ	.	.	16G#X\Jk	.
=15	=15	=15	=15	=15	=15	=15	=15	=15	=15	=15	=15	=15	=15	=15	=15	=15	=15	=15	=15	=15	=15	=15	=15	=15	=15
[8A\L	e-	.	[8A\L	e-	.	[8e\L	e-	.	8A\L	e-	.	[8a\L	e-	.	[8a\L	e-	.	8cc#X\L	e-	.	8cc#X\L	e-	.	8A\L	.
8A\J]	.	.	8A\J]	.	.	8e\J]	.	.	8c#X\J	.	.	8a\J]	.	.	8a\J]	.	.	8aa\J	.	.	8cc#\J	.	.	8A\	.
!	!	!	!	!	!	!LO:SIC:v:s:l=-vae	!	!	!	!	!	!	!	!	!	!	!	!	!	!	!	!	!	!	!
!LO:SIC:v:s:l=-vae	!	!	!LO:SIC:v:s:l=-vae	!	!	!LO:SIC:v:s=4c#	!	!	!LO:SIC:v:s:l=-vae	!	!	!LO:SIC:v:s:l=-vae	!	!	!LO:SIC:v:s:l=-vae	!	!	!LO:SIC:v:s:l=-vae	!	!	!LO:SIC:v:s:l=-vae	!	!	!	!
4A;\	-ve	.	4A;\	-ve	.	4e;\	-ve	.	4A;\	-ve	.	4a;\	-ve	.	4a;\	-ve	.	4a;\	-ve	.	4cc#;\	-ve	.	8A;\J	.
.	.	.	.	.	.	.	.	.	.	.	.	.	.	.	.	.	.	.	.	.	.	.	.	8r	.
!	!	!	!LO:LB:g=original	!	!	!	!	!	!	!	!	!	!	!	!	!	!	!	!	!	!	!	!	!	!
!	!	!	!	!	!	!	!	!	!	!	!	!	!	!	!	!	!	!	!	!	!	!	!	!LO:TX:t=P:problem=zbędna pauza półnutowa; powinna być w t. 27	!
!	!	!	!	!	!LO:DY:a:rj	!	!	!	!	!	!	!	!	!LO:DY:a:rj	!	!	!LO:DY:a:rj	!	!	!LO:DY:a:rj:t=p.	!	!	!LO:DY:a:rj	!LO:TX:t=P:problem=przesunięcie partii o pół taktu zgodnie z pionami	!LO:DY:a:rj
!	!	!	!	!	!	!	!	!	!	!	!	!	!	!	!	!	!	!	!	!	!	!	!	!LO:LB:g=original	!
2r	.	.	(16F#\LL	Ad	p	2r	.	.	2rF	.	.	8.a\	ad	p	8.a\	Ad	p	8.ff#\	Ad	p	8.ff#\	Ad	p	8d\	p
.	.	.	16A\JJ)	.	.	.	.	.	.	.	.	.	.	.	.	.	.	.	.	.	.	.	.	.	.
.	.	.	8A\	te	.	.	.	.	.	.	.	.	.	.	.	.	.	.	.	.	.	.	.	8r	.
.	.	.	.	.	.	.	.	.	.	.	.	16a\	te	.	16a\	te	.	16ff#\	te	.	16ff#\	te	.	.	.
.	.	.	16G#X\	su-	.	.	.	.	.	.	.	8g\	su-	.	8g\	su-	.	8ee\	su-	.	8ee\	su-	.	8D\	.
.	.	.	16A\	-spi-	.	.	.	.	.	.	.	.	.	.	.	.	.	.	.	.	.	.	.	.	.
.	.	.	16F#\	-ra-	.	.	.	.	.	.	.	8f#\	-spi-	.	8f#\	-spi-	.	8dd\	-spi-	.	8dd\	-spi-	.	8r	.
.	.	.	16D\	-mus	.	.	.	.	.	.	.	.	.	.	.	.	.	.	.	.	.	.	.	.	.
!	!	!	!	!	!	!LO:LB:g=original	!	!	!	!	!	!	!	!	!	!	!	!	!	!	!	!	!	!	!
=16	=16	=16	=16	=16	=16	=16	=16	=16	=16	=16	=16	=16	=16	=16	=16	=16	=16	=16	=16	=16	=16	=16	=16	=16	=16
!LO:TX:a:i:t=Dolce	!	!	!	!	!	!	!	!LO:DY:a:rj	!	!	!LO:DY:a:rj	!	!	!	!	!	!	!	!	!	!	!	!	!	!
16E\LL	Ad	.	8.A\	Ad	.	8.c#X\	Ad	p	8.c#X\	Ad	p	8e\	-ra-	.	8e\	-ra-	.	8cc#X\	-ra-	.	8cc#X\	-ra-	.	8A\	.
16A\JJ	.	<	.	.	.	.	.	.	.	.	.	.	.	.	.	.	.	.	.	.	.	.	.	.	.
8A\	te	.	.	.	.	.	.	.	.	.	.	8e\	-mus	.	8e\	-mus	.	8cc#\	-mus	.	8cc#\	-mus	.	8r	.
.	.	.	16A\	te	.	16c#\	te	.	16c#\	te	.	.	.	.	.	.	.	.	.	.	.	.	.	.	.
16G#X\	su-	.	8A\	su-	.	8c#\	su-	.	8c#\	su-	.	4r	.	.	4r	.	.	4r	.	.	4r	.	.	8AA/	.
16A\	-spi-	.	.	.	.	.	.	.	.	.	.	.	.	.	.	.	.	.	.	.	.	.	.	.	.
16Gn\	-ra-	.	16B\LL	-spi-	.	16d\LL	-spi-	.	16d\LL	-spi-	.	.	.	.	.	.	.	.	.	.	.	.	.	8r	.
16E\	-mus	.	16c#X\JJ	.	.	16e\JJ	.	.	16e\JJ	.	.	.	.	.	.	.	.	.	.	.	.	.	.	.	.
*	*	*	*	*	*	*	*	*	*	*	*	*	*	*	*	*ij	*	*	*	*	*	*	*	*	*
16F#\LL	ge-	.	8d\	-ra-	.	8f#\	-ra-	.	8f#\	-ra-	.	8.a\	Ad	.	8.a\	Ad	.	8.ff#\	Ad	.	8.ff#\	Ad	.	8d\	.
16A\JJ	.	.	.	.	.	.	.	.	.	.	.	.	.	.	.	.	.	.	.	.	.	.	.	.	.
!LO:LB:g=original	!	!	!	!	!	!	!	!	!	!	!	!	!	!	!	!	!	!	!	!	!	!	!	!	!
8A\	-men-	.	8d\	-mus	.	8f#\	-mus	.	8f#\	-mus	.	.	.	.	.	.	.	.	.	.	.	.	.	8r	.
.	.	.	.	.	.	.	.	.	.	.	.	16a\	te	.	16a\	te	.	16ff#\	te	.	16ff#\	te	.	.	.
16G#X\	-tes	.	4r	.	.	4r	.	.	4r	.	.	8g\	sus-	.	8g\	sus-	.	8ee\	su-	.	8ee\	su-	.	8D\	.
16A\	et	.	.	.	.	.	.	.	.	.	.	.	.	.	.	.	.	.	.	.	.	.	.	.	.
16Gn\	flen-	.	.	.	.	.	.	.	.	.	.	8f#\	-pi-	.	8f#\	-pi-	.	8dd\	-spi-	.	8dd\	-spi-	.	8r	.
16D\	-tes	.	.	.	.	.	.	.	.	.	.	.	.	.	.	.	.	.	.	.	.	.	.	.	.
!	!	!	!	!	!	!	!	!	!LO:LB:g=original	!	!	!LO:LB:g=original	!	!	!	!	!	!	!	!	!LO:LB:g=original	!	!	!	!
=17	=17	=17	=17	=17	=17	=17	=17	=17	=17	=17	=17	=17	=17	=17	=17	=17	=17	=17	=17	=17	=17	=17	=17	=17	=17
!	!	!	!	!	!	!	!	!	!	!	!	!	!	!	!	!	!	!LO:SIC:v:s=8cc#	!	!	!	!	!	!	!
8.A\	Ad	.	16E\LL	ge-	.	8.c#X\	Ad	.	8.c#X\	Ad	.	8e\	-ra-	.	8e\	-ra-	.	8cc\	-ra-	.	8cc#X\	-ra-	.	8A\	.
.	.	.	16A\JJ	.	.	.	.	.	.	.	.	.	.	.	.	.	.	.	.	.	.	.	.	.	.
!	!	!	!	!	!	!	!	!	!	!	!	!	!	!	!	!	!	!LO:SIC:v:s=8cc#	!	!	!	!	!	!	!
.	.	.	8A\	-men-	.	.	.	.	.	.	.	8e\	-mus	.	8e\	-mus	.	8cc\	-mus	.	8cc#\	-mus	.	8r	.
*	*	*	*	*	*	*	*	*	*	*	*	*	*	*	*	*Xij	*	*	*	*	*	*	*	*	*
16A\	te	.	.	.	.	16c#\	te	.	16c#\	te	.	.	.	.	.	.	.	.	.	.	.	.	.	.	.
!	!	!	!	!	!	!	!	!	!	!	!	!	!	!	!LO:LB:g=original	!	!	!	!	!	!	!	!	!	!
!	!	!	!	!	!	!	!	!	!	!	!	!	!	!	!	!	!LO:DY:a:rj	!	!	!	!	!	!LO:DY:a:rj	!	!
8A\	su-	.	16G#X\	-teſ	.	8c#\	su-	.	8c#\	su-	.	4r	.	.	4r	.	f	4r	.	.	4r	.	f	8AA/	.
.	.	.	16A\	et	.	.	.	.	.	.	.	.	.	.	.	.	.	.	.	.	.	.	.	.	.
16B\LL	-spi-	.	16Gn\	flen-	.	16d\LL	-spi-	.	16d\LL	-spi-	.	.	.	.	.	.	.	.	.	.	.	.	.	8r	.
16c#X\JJ	.	.	16E\	-tes	.	16e\JJ	.	.	16e\JJ	.	.	.	.	.	.	.	.	.	.	.	.	.	.	.	.
!	!	!	!LO:LB:g=original	!	!	!	!	!	!	!	!	!	!	!	!	!	!	!LO:LB:g=original	!	!	!	!	!	!	!
!	!	!	!	!	!LO:DY:a:rj:t=fo	!	!	!	!	!	!	!	!	!	!	!	!	!	!	!LO:DY:a:rj:t=for	!	!	!	!	!LO:HP:a:rj
16d\	-ra-	.	4d\	ge-	f	16d\	-ra-	.	16d\	-ra-	.	4dd\	ge-	.	4dd\	ge-	.	4ffn\	ge-	f	4ffn\	ge-	.	4d\	>
16d\	-mus	.	.	.	.	16d\	-mus	.	16d\	-mus	.	.	.	.	.	.	.	.	.	.	.	.	.	.	.
8d\	ge-	.	.	.	.	8d\	ge-	.	8A\	ge-	.	.	.	.	.	.	.	.	.	.	.	.	.	.	.
16fn\LL	-men-	.	16fn\LL	-men-	.	8A\	-men-	.	8A\	-men-	.	8dd\	-men-	.	8dd\	-men-	.	8ff\	-men-	.	8ff\	-men-	.	16Fn\LL	.
16e\JJ	.	.	16e\JJ	.	.	.	.	.	.	.	.	.	.	.	.	.	.	.	.	.	.	.	.	16E\	.
16d\LL	-tes	.	16d\LL	-tes	.	8A\	-tes	.	8A\	-tes	.	8dd\	-tes	.	8dd\	-tes	.	8ff\	-tes	.	8ff\	-tes	.	16D\	.
16cn\JJ	.	.	16cn\JJ	.	.	.	.	.	.	.	.	.	.	.	.	.	.	.	.	.	.	.	.	16Cn\JJ	]]
!LO:LB:g=original	!	!	!	!	!	!	!	!	!	!	!	!	!	!	!	!	!	!	!	!	!	!	!	!	!
=18	=18	=18	=18	=18	=18	=18	=18	=18	=18	=18	=18	=18	=18	=18	=18	=18	=18	=18	=18	=18	=18	=18	=18	=18	=18
!	!	!	!	!	!	!	!	!	!	!	!	!	!	!	!	!	!	!LO:SIC:v:s=4ffn	!	!	!LO:SIC:v:s=4ffn	!	!	!	!
4B-X\	et	.	4B-X\	et	.	4B-X\	et	.	4B-X\	et	.	4dd\	et	.	4dd\	et	.	4ff#\	et	.	4ff#\	et	.	4B-X\	.
!	!	!	!	!	!	!	!	!	!	!	!	!	!	!	!	!	!	!LO:SIC:v:s=8ffn	!	!	!LO:SIC:v:s=8ffn	!	!	!	!LO:HP:a:rj
16d\LL	flen-	.	16d\LL	flen-	.	8B-\	flen-	.	8B-\	flen-	.	8dd\	flen-	.	8dd\	flen-	.	8ff#\	flen-	.	8ff#\	flen-	.	16d\LL	>
16c\JJ	.	.	16c\JJ	.	.	.	.	.	.	.	.	.	.	.	.	.	.	.	.	.	.	.	.	16cn\	.
!	!	!	!	!	!	!	!	!	!	!	!	!	!	!	!	!	!	!LO:SIC:v:s=8ffn	!	!	!LO:SIC:v:s=8ffn	!	!	!	!
16B-\LL	-tes	.	16B-\LL	-tes	.	8B-\	-tes	.	8B-\	-tes	.	8dd\	-tes	.	8dd\	-tes	.	8ff#\	-tes	.	8ff#\	-tes	.	16B-\	.
16A\JJ	.	.	16A\JJ	.	.	.	.	.	.	.	.	.	.	.	.	.	.	.	.	.	.	.	.	16A\JJ	.
!	!	!	!	!	!	!LO:LB:g=original	!	!	!	!	!	!	!	!	!	!	!	!	!	!	!	!	!	!	!
!	!	!	!	!	!	!	!	!	!	!	!	!	!	!	!	!	!	!	!	!	!	!	!	!LO:TX:t=P:f = for:global:problem	!LO:DY:a:rj
4G#X\	in	.	4G#X\	in	.	4Bn\	in	.	4Bn\	in	.	4cc#X\	in	.	4cc#X\	in	.	4ee\	in	.	4ee\	in	.	8G#X\L	] f
.	.	.	.	.	.	.	.	.	.	.	.	.	.	.	.	.	.	.	.	.	.	.	.	8G#\	.
!	!	!	!	!	!	!LO:SIC:v:s=hac	!	!	!	!	!	!LO:SIC:v:s=hac	!	!	!LO:SIC:v:s=hac	!	!	!	!	!	!	!	!	!	!
4G#\	hac	.	4G#\	hac	.	4B\	chac	.	4B\	hac	.	4cc#\	chac	.	4cc#\	chac	.	4ee\	hac	.	4ee\	hac	.	8G#\	.
.	.	.	.	.	.	.	.	.	.	.	.	.	.	.	.	.	.	.	.	.	.	.	.	8G#\J	.
=19	=19	=19	=19	=19	=19	=19	=19	=19	=19	=19	=19	=19	=19	=19	=19	=19	=19	=19	=19	=19	=19	=19	=19	=19	=19
!	!	!	!	!	!	!	!	!LO:DY:a:rj	!	!	!	!	!	!LO:DY:a:rj	!	!	!LO:DY:a:rj	!	!	!	!	!	!	!	!
8A\	la-	f	8A\	la-	.	8A\	la-	f	8A\	la-	.	8cc#X\	la-	f	8cc#X\	la-	f	8ee\	la-	.	8ee\	la-	.	8A\L	.
!LO:SIC:v:s=8G#	!	!	!LO:SIC:v:s=8G#	!	!	!	!	!	!	!	!	!	!	!	!	!	!	!	!	!	!	!	!	!	!
!LO:SIC:v:s:l=-cri-	!	!	!LO:SIC:v:s:l=-cri-	!	!	!LO:SIC:v:s:l=-cri-	!	!	!LO:SIC:v:s:l=-cri-	!	!	!LO:SIC:v:s:l=-cri-	!	!	!LO:SIC:v:s:l=-cri-	!	!	!LO:SIC:v:s:l=-cri-	!	!	!LO:SIC:v:s:l=-cri-	!	!	!	!
8G\	-chri-	.	8G\	-hri-	.	8Bn\	-chri-	.	8Bn\	-hri-	.	8dd\	-chri-	.	8dd\	-chri-	.	8ffn\	-chri-	.	8ffn\	-chri-	.	8G#X\	.
8A\	-ma-	.	8A\	-ma-	.	8A\	-ma-	.	8A\	-ma-	.	8cc#\	-ma-	.	8cc#\	-ma-	.	8ee\	-ma-	.	8ee\	-ma-	.	8A\	.
!LO:SIC:v:s=8G#	!	!	!LO:SIC:v:s=8G#	!	!	!	!	!	!	!	!	!	!	!	!	!	!	!	!	!	!	!	!	!	!
8G\	-rum	.	8G\	-rum	.	8B\	-rum	.	8B\	-rum	.	8dd\	-rum	.	8dd\	-rum	.	8ff\	-rum	.	8ff\	-rum	.	8G#\J	.
!	!	!	!	!	!	!	!	!	!	!	!	!	!	!	!	!	!	!	!	!	!	!	!	!LO:LB:g=original	!
!	!	!	!	!	!	!	!	!	!	!	!	!	!	!	!	!	!	!LO:SIC:v:s=val-	!	!	!LO:SIC:v:s=val-	!	!	!LO:TX:t=P:problem=mixed beam	!
8A\	val-	.	8A\	val-	.	8A\	Val-	.	8A\	val-	.	8cc#\	val-	.	8cc#\	val-	.	8ee\	va-	.	8ee\	va-	.	8A\L	.
8A\	-le	.	8A\	-le	.	8A\	-le	.	8A\	-le	.	8cc#\	-le	.	8cc#\	-le	.	8ee\	-le	.	8ee\	-le	.	8AA/J	.
!	!	!	!	!	!LO:DY:a:rj	!	!	!	!	!	!	!	!	!	!	!	!	!	!	!	!	!	!	!	!
4r	.	.	16c#X\LL	E-	<	4r	.	.	4r	.	.	4r	.	.	4r	.	.	8r	.	.	8r	.	.	4r	.
.	.	.	16e\	.	.	.	.	.	.	.	.	.	.	.	.	.	.	.	.	.	.	.	.	.	.
.	.	.	16c#\	.	.	.	.	.	.	.	.	.	.	.	.	.	.	8r	.	.	8r	.	.	.	.
.	.	.	16A\JJ	-ia	.	.	.	.	.	.	.	.	.	.	.	.	.	.	.	.	.	.	.	.	.
!	!	!	!	!	!	!	!	!	!LO:LB:g=original	!	!	!	!	!	!	!	!	!	!	!	!	!	!	!	!
=20	=20	=20	=20	=20	=20	=20	=20	=20	=20	=20	=20	=20	=20	=20	=20	=20	=20	=20	=20	=20	=20	=20	=20	=20	=20
!	!	!LO:DY:a:rj	!LO:SIC:v:s=16G#	!	!	!	!	!	!	!	!	!	!	!LO:DY:a:rj	!	!	!LO:DY:a:rj	!	!	!LO:DY:a:rj:t=p.	!	!	!LO:DY:a:rj	!	!
2r	.	p	(16G\	er-	.	2r	.	.	2r	.	.	2r	.	p	2r	.	p	2r	.	p	2r	.	p	4r	.
.	.	.	16F#\LL	.	.	.	.	.	.	.	.	.	.	.	.	.	.	.	.	.	.	.	.	.	.
!	!	!	!LO:SIC:v:s=16G#	!	!	!	!	!	!	!	!	!	!	!	!	!	!	!	!	!	!	!	!	!	!
.	.	.	16G\JJ)	.	.	.	.	.	.	.	.	.	.	.	.	.	.	.	.	.	.	.	.	.	.
.	.	.	16A\	-go	.	.	.	.	.	.	.	.	.	.	.	.	.	.	.	.	.	.	.	.	.
!	!	!	!LO:LB:g=original	!	!	!	!	!	!	!	!	!	!	!	!	!	!	!	!	!	!	!	!	!	!
!	!	!	!	!	!	!	!	!	!	!	!	!	!	!	!	!	!	!	!	!	!	!	!	!	!LO:DY:a:rj
.	.	.	16B\LL	ad-	.	.	.	.	.	.	.	.	.	.	.	.	.	.	.	.	.	.	.	8r	p
.	.	.	16A\JJ	.	.	.	.	.	.	.	.	.	.	.	.	.	.	.	.	.	.	.	.	.	.
.	.	.	16B\LL	-vo-	.	.	.	.	.	.	.	.	.	.	.	.	.	.	.	.	.	.	.	8AA/	.
.	.	.	16c#X\JJ	.	.	.	.	.	.	.	.	.	.	.	.	.	.	.	.	.	.	.	.	.	.
!	!	!	!	!	!	!	!	!LO:DY:a:rj	!	!	!LO:DY:a:rj	!	!	!	!	!	!	!	!	!	!	!	!	!	!
4.d\	E-	.	16d\LL	-ca-	.	4.d\	E-	p	4.d\	E-	p	4.a\	E-	.	4.a\	E-	.	4.ff#X\	E-	.	4.ff#X\	E-	.	8D\L	.
.	.	.	16D\JJ	.	.	.	.	.	.	.	.	.	.	.	.	.	.	.	.	.	.	.	.	.	.
.	.	.	8D\	-ta	.	.	.	.	.	.	.	.	.	.	.	.	.	.	.	.	.	.	.	8d\	.
.	.	.	16D\	ad-	.	.	.	.	.	.	.	.	.	.	.	.	.	.	.	.	.	.	.	8d\	.
.	.	.	16d\	-vo-	.	.	.	.	.	.	.	.	.	.	.	.	.	.	.	.	.	.	.	.	.
!	!	!	!	!	!	!LO:SIC:v:s:l=-ia	!	!	!LO:SIC:v:s:l=-ia	!	!	!	!	!	!	!	!	!	!	!	!	!	!	!	!
8d\	-ia	.	16c#X\	-ca-	.	8d\	-ja	.	8d\	-ja	.	8a\	-ia	.	8a\	-ia	.	8ff#\	-ia	.	8ff#\	-ia	.	8d\J	.
.	.	.	16B\	-ta	.	.	.	.	.	.	.	.	.	.	.	.	.	.	.	.	.	.	.	.	.
!	!	!	!	!	!	!	!	!	!	!	!	!LO:LB:g=original	!	!	!	!	!	!	!	!	!LO:LB:g=original	!	!	!	!
=21	=21	=21	=21	=21	=21	=21	=21	=21	=21	=21	=21	=21	=21	=21	=21	=21	=21	=21	=21	=21	=21	=21	=21	=21	=21
*	*	*	*	*	*	*	*	*	*	*	*	*	*	*	*	*	*	*	*	*	*	*	*	*2\right	*
*	*	*	*	*	*	*	*	*	*	*	*	*	*	*	*	*	*	*	*	*	*	*	*	*tremolo	*
!	!	!	!	!	!	!	!	!	!	!	!	!	!	!	!	!	!	!	!	!	!	!	!	!LO:TX:t=P:problem=2\right | middle&colon; global	!
!	!	!	!	!	!	!	!	!	!	!	!	!	!	!	!	!	!	!	!	!	!	!	!	!LO:TX:t=P:problem=kropki nad tremolo	!
8A\	er-	.	(16B\LL	no-	.	8c#X\	er-	.	8c#X\	er-	.	8g\	er-	.	8g\	er-	.	8ee\	er-	.	8ee\	er-	.	8c#X\L	.
.	.	.	16A\JJ)	.	.	.	.	.	.	.	.	.	.	.	.	.	.	.	.	.	.	.	.	.	.
8A\	-go	.	8A\	-stra	.	8c#\	-go	.	8c#\	-go	.	8g\	-go	.	8g\	-go	.	8ee\	-go	.	8ee\	-go	.	8c#X\	.
4r	.	.	16r	.	.	4r	.	.	4r	.	.	4r	.	.	4r	.	.	4r	.	.	4r	.	.	8c#X\	.
.	.	.	(16E\LL	il-	.	.	.	.	.	.	.	.	.	.	.	.	.	.	.	.	.	.	.	.	.
.	.	.	16F#\JJ)	.	.	.	.	.	.	.	.	.	.	.	.	.	.	.	.	.	.	.	.	8c#X\J	.
.	.	.	16G\	-los	.	.	.	.	.	.	.	.	.	.	.	.	.	.	.	.	.	.	.	.	.
!LO:LB:g=original	!	!	!	!	!	!	!	!	!	!	!	!	!	!	!	!	!	!LO:LB:g=original	!	!	!	!	!	!	!
!	!	!	!	!	!	!	!	!	!	!	!	!	!	!	!	!	!	!	!	!	!	!	!	!LO:TX:t=P:problem=kropki nad tremolo	!
8.d\	Ad-	.	(16E\LL	tu-	.	8.d\	ad-	.	8.d\	ad-	.	8.a\	ad-	.	8.a\	Ad-	.	8.ff#\	ad-	.	8.ff#\	ad-	.	8d\L	.
.	.	.	16F#\JJ)	.	.	.	.	.	.	.	.	.	.	.	.	.	.	.	.	.	.	.	.	.	.
!	!	!	!LO:SIC:v:s:l=-os	!	!	!	!	!	!	!	!	!	!	!	!	!	!	!	!	!	!	!	!	!	!
.	.	.	8G\	-a	.	.	.	.	.	.	.	.	.	.	.	.	.	.	.	.	.	.	.	8d\	.
16d\	-vo-	.	.	.	.	16d\	-vo-	.	16d\	-vo-	.	16a\	-vo-	.	16a\	-vo-	.	16ff#\	-vo-	.	16ff#\	-vo-	.	.	.
!	!	!	!	!	!	!	!	!	!	!	!	!	!	!	!LO:LB:g=original	!	!	!	!	!	!	!	!	!	!
8d\	-ca-	.	16r	.	.	8d\	-ca-	.	8d\	-ca-	.	8a\	-ca-	.	8a\	-ca-	.	8ff#\	-ca-	.	8ff#\	-ca-	.	8d\	.
.	.	.	16d\	mi-	.	.	.	.	.	.	.	.	.	.	.	.	.	.	.	.	.	.	.	.	.
!	!	!	!LO:TX:t=P:\right:problem	!	!	!	!	!	!	!	!	!	!	!	!	!	!	!	!	!	!	!	!	!	!
!	!	!	!LO:SIC:v:s=16c#	!	!	!	!	!	!	!	!	!	!	!	!	!	!	!	!	!	!	!	!	!	!
8d\	-ta	.	16c\	-se-	.	8d\	-ta	.	8d\	-ta	.	8a\	-ta	.	8a\	-ta	.	8ff#\	-ta	.	8ff#\	-ta	.	8d\J	.
.	.	.	16B\	-ri-	.	.	.	.	.	.	.	.	.	.	.	.	.	.	.	.	.	.	.	.	.
!	!	!	!LO:LB:g=original	!	!	!LO:LB:g=original	!	!	!	!	!	!	!	!	!	!	!	!	!	!	!	!	!	!	!
=22	=22	=22	=22	=22	=22	=22	=22	=22	=22	=22	=22	=22	=22	=22	=22	=22	=22	=22	=22	=22	=22	=22	=22	=22	=22
!	!	!	!	!	!	!	!	!	!	!	!	!	!	!	!	!	!	!	!	!	!	!	!	!LO:TX:t=P:problem=kropki nad tremolo	!
!	!	!	!	!	!	!	!	!	!	!	!	!	!	!	!	!	!	!	!	!	!	!	!	!LO:SIC:v:s=2c#	!
8A\	no-	.	(16B\LL	-cor-	.	8c#X\	no-	.	8c#X\	no-	.	8g\	no-	.	8g\	no-	.	8ee\	no-	.	8ee\	no-	.	8c\L	.
.	.	.	16A\JJ)	.	.	.	.	.	.	.	.	.	.	.	.	.	.	.	.	.	.	.	.	.	.
8A\	-stra	.	8A\	-des	.	8c#\	-stra	.	8c#\	-stra	.	8g\	-stra	.	8g\	-stra	.	8ee\	-stra	.	8ee\	-stra	.	8c\	.
!	!	!	!	!	!	!	!	!	!	!	!	!	!	!LO:DY:a:rj	!	!	!LO:DY:a:rj	!	!	!	!	!	!	!	!
4r	.	.	16r	.	.	4r	.	.	4r	.	.	4r	.	p	4r	.	p	4r	.	.	4r	.	.	8c\	.
.	.	.	16E\	o-	.	.	.	.	.	.	.	.	.	.	.	.	.	.	.	.	.	.	.	.	.
.	.	.	16F#\	-cu-	.	.	.	.	.	.	.	.	.	.	.	.	.	.	.	.	.	.	.	8c\J	.
.	.	.	16G\	-los	.	.	.	.	.	.	.	.	.	.	.	.	.	.	.	.	.	.	.	.	.
*	*	*	*	*	*	*	*	*	*	*	*	*	*	*	*	*	*	*	*	*	*	*	*	*Xtremolo	*
!	!	!LO:DY:a:rj	!	!	!	!	!	!	!	!	!	!	!	!	!	!	!	!LO:TX:t=P:\right:problem	!	!LO:DY:a:rj	!	!	!LO:DY:a:rj	!	!
4f#\	il-	p	(16F#'\LL	mi-	.	4d\	il-	.	4d\	il-	.	4a\	il-	.	4a\	il-	.	4dd\	il-	p	4dd\	il-	p	8d\L	.
.	.	.	16G'\	.	.	.	.	.	.	.	.	.	.	.	.	.	.	.	.	.	.	.	.	.	.
.	.	.	16A'\	.	.	.	.	.	.	.	.	.	.	.	.	.	.	.	.	.	.	.	.	8F#\	.
.	.	.	16B'\JJ	.	.	.	.	.	.	.	.	.	.	.	.	.	.	.	.	.	.	.	.	.	.
4e\	-los	.	16c#X'\LL	.	.	4c#X\	-los	.	4c#X\	-los	.	4g\	-los	.	4g\	-los	.	4cc#X\	-los	.	4cc#X\	-los	.	8E\	.
.	.	.	16d'\	.	.	.	.	.	.	.	.	.	.	.	.	.	.	.	.	.	.	.	.	.	.
.	.	.	16e'\	.	.	.	.	.	.	.	.	.	.	.	.	.	.	.	.	.	.	.	.	8E\J	.
.	.	.	16f#'\JJ)	.	.	.	.	.	.	.	.	.	.	.	.	.	.	.	.	.	.	.	.	.	.
=23	=23	=23	=23	=23	=23	=23	=23	=23	=23	=23	=23	=23	=23	=23	=23	=23	=23	=23	=23	=23	=23	=23	=23	=23	=23
!	!	!	!	!	!LO:DY:b:rj	!	!	!	!	!	!	!	!	!	!	!	!	!	!	!	!	!	!	!	!
4d\	tu-	.	4d\	-se-	p	4B\	tu-	.	4B\	tu-	.	4f#\	tu-	.	4f#\	tu-	.	4b\	tu-	.	4b\	tu-	.	8D/L	.
.	.	.	.	.	.	.	.	.	.	.	.	.	.	.	.	.	.	.	.	.	.	.	.	8D/	.
4c#X\	-os	.	4c#X\	-ri	.	4A\	-os	.	4A\	-os	.	4e\	-os	.	4e\	-os	.	4a\	-os	.	4a\	-os	.	8C#X/	.
.	.	.	.	.	.	.	.	.	.	.	.	.	.	.	.	.	.	.	.	.	.	.	.	8C#/J	.
8B\	mi-	.	8B\	Mi-	.	8G\	mi-	.	8G\	mi-	.	8d\	mi-	.	8d\	mi-	.	8g\	Mi-	.	8g\	Mi-	.	8BB\L	.
16B\	-se-	.	16B\	-se-	.	16G\	-se-	.	16G\	-se-	.	16d\	-se-	.	16d\	-se-	.	16g\	-se-	.	16g\	-se-	.	8B\	.
16B\	-ri-	.	16B\	-ri-	.	16G\	-ri-	.	16G\	-ri-	.	16d\	-ri-	.	16d\	-ri-	.	16g\	-ri-	.	16g\	-ri-	.	.	.
8A\	-cor-	.	8A\	-cor-	.	8F#\	-cor-	.	8F#\	-cor-	.	8c#X\	-cor-	.	8c#X\	-cor-	.	8f#\	-cor-	.	8f#\	-cor-	.	8A\	.
8A\	-des	.	8A\	-des	.	8F#\	-des	.	8F#\	-des	.	8c#\	-des	.	8c#\	-des	.	8f#\	-des	.	8f#\	-des	.	8A\J	.
!LO:LB:g=original	!	!	!LO:LB:g=original	!	!	!	!	!	!LO:LB:g=original	!	!	!	!	!	!	!	!	!	!	!	!	!	!	!	!
=24	=24	=24	=24	=24	=24	=24	=24	=24	=24	=24	=24	=24	=24	=24	=24	=24	=24	=24	=24	=24	=24	=24	=24	=24	=24
*	*	*	*	*	*	*	*	*	*	*	*	*	*	*	*	*	*	*	*	*	*	*	*	*tremolo	*
4G\	o-	.	4G\	o-	.	4e\	o-	.	4e\	o-	.	4b\	o-	.	4b\	o-	.	4ee\	o-	.	4ee\	o-	.	16G\LL	.
.	.	.	.	.	.	.	.	.	.	.	.	.	.	.	.	.	.	.	.	.	.	.	.	16G\	.
.	.	.	.	.	.	.	.	.	.	.	.	.	.	.	.	.	.	.	.	.	.	.	.	16G\	.
.	.	.	.	.	.	.	.	.	.	.	.	.	.	.	.	.	.	.	.	.	.	.	.	16G\JJ	.
8G\	-cu-	.	8G\	-cu-	.	8e\	-cu-	.	8e\	-cu-	.	8b\	-cu-	.	8b\	-cu-	.	8ee\	-cu-	.	8ee\	-cu-	.	16G\LL	.
.	.	.	.	.	.	.	.	.	.	.	.	.	.	.	.	.	.	.	.	.	.	.	.	16G\	.
8G\	-los	.	8G\	-los	.	8e\	-los	.	8e\	-los	.	8b\	-los	.	8b\	-los	.	8ee\	-los	.	8ee\	-los	.	16G\	.
.	.	.	.	.	.	.	.	.	.	.	.	.	.	.	.	.	.	.	.	.	.	.	.	16G\JJ	.
!	!	!	!	!	!	!	!	!	!	!	!	!LO:LB:g=original	!	!	!	!	!	!	!	!	!	!	!	!LO:LB:g=original	!
!LO:TX:a:t=a	!	!	!	!	!	!	!	!	!	!	!	!	!	!	!	!	!	!	!	!	!	!	!	!	!
4A\	ad	.	4A\	ad	.	4d\	ad	.	4d\	ad	.	4a\	ad	.	4a\	ad	.	4ff#\	ad	.	4ff#\	ad	.	16A\LL	.
.	.	.	.	.	.	.	.	.	.	.	.	.	.	.	.	.	.	.	.	.	.	.	.	16A\	.
.	.	.	.	.	.	.	.	.	.	.	.	.	.	.	.	.	.	.	.	.	.	.	.	16A\	.
.	.	.	.	.	.	.	.	.	.	.	.	.	.	.	.	.	.	.	.	.	.	.	.	16A\JJ	.
!LO:TX:a:t=a	!	!	!	!	!	!	!	!	!	!	!	!	!	!	!	!	!	!	!	!	!	!	!	!	!
4A\	nos	.	4A\	nos	.	4d\	nos	.	4d\	nos	.	4a\	nos	.	4a\	nos	.	4ff#\	nos	.	4ff#\	nos	.	16A\LL	.
.	.	.	.	.	.	.	.	.	.	.	.	.	.	.	.	.	.	.	.	.	.	.	.	16A\	.
.	.	.	.	.	.	.	.	.	.	.	.	.	.	.	.	.	.	.	.	.	.	.	.	16A\	.
.	.	.	.	.	.	.	.	.	.	.	.	.	.	.	.	.	.	.	.	.	.	.	.	16A\JJ	.
!	!	!	!	!	!	!LO:LB:g=original	!	!	!	!	!	!	!	!	!	!	!	!	!	!	!LO:LB:g=original	!	!	!	!
=25	=25	=25	=25	=25	=25	=25	=25	=25	=25	=25	=25	=25	=25	=25	=25	=25	=25	=25	=25	=25	=25	=25	=25	=25	=25
4A\	con-	.	4A\	con-	.	4c#X\	con-	.	4c#X\	con-	.	4a\	con-	.	4a\	con-	.	4ee\	con-	.	4ee\	con-	.	16AA/LL	.
.	.	.	.	.	.	.	.	.	.	.	.	.	.	.	.	.	.	.	.	.	.	.	.	16AA/	.
.	.	.	.	.	.	.	.	.	.	.	.	.	.	.	.	.	.	.	.	.	.	.	.	16AA/	.
.	.	.	.	.	.	.	.	.	.	.	.	.	.	.	.	.	.	.	.	.	.	.	.	16AA/JJ	.
4AA/	-ver-	.	4AA/	-ver-	.	4c#\	-ver-	.	4c#\	-ver-	.	4a\	-ver-	.	4a\	-ver-	.	4ee\	-ver-	.	4ee\	-ver-	.	16AA/LL	.
.	.	.	.	.	.	.	.	.	.	.	.	.	.	.	.	.	.	.	.	.	.	.	.	16AA/	.
.	.	.	.	.	.	.	.	.	.	.	.	.	.	.	.	.	.	.	.	.	.	.	.	16AA/	.
.	.	.	.	.	.	.	.	.	.	.	.	.	.	.	.	.	.	.	.	.	.	.	.	16AA/JJ	.
*	*	*	*	*	*	*	*	*	*	*	*	*	*	*	*	*	*	*	*	*	*	*	*	*Xtremolo	*
4D\	-te	.	4D\	-te	.	4d\	-te	.	4d\	-te	.	4f#\	-te	.	4f#\	-te	.	4dd\	-te	.	4dd\	-te	.	8D\L	.
.	.	.	.	.	.	.	.	.	.	.	.	.	.	.	.	.	.	.	.	.	.	.	.	8d\J	.
4r	.	.	4r	.	.	4r	.	.	4r	.	.	4r	.	.	4r	.	.	4r	.	.	4r	.	.	16d\LL	.
.	.	.	.	.	.	.	.	.	.	.	.	.	.	.	.	.	.	.	.	.	.	.	.	16cn\	.
.	.	.	.	.	.	.	.	.	.	.	.	.	.	.	.	.	.	.	.	.	.	.	.	16B\	.
.	.	.	.	.	.	.	.	.	.	.	.	.	.	.	.	.	.	.	.	.	.	.	.	16A\JJ	.
!	!	!	!	!	!	!	!	!	!	!	!	!	!	!	!LO:LB:g=original	!	!	!LO:LB:g=original	!	!	!	!	!	!	!
=26	=26	=26	=26	=26	=26	=26	=26	=26	=26	=26	=26	=26	=26	=26	=26	=26	=26	=26	=26	=26	=26	=26	=26	=26	=26
*	*	*	*	*	*	*	*	*	*	*	*	*	*	*	*	*	*	*	*	*	*	*	*	*tremolo	*
!	!	!	!	!	!	!	!	!	!	!	!	!LO:TX:a:i:t=Dolce	!	!	!LO:TX:a:i:t=Dolce	!	!	!	!	!LO:DY:a:rj	!	!	!LO:DY:a:rj	!LO:TX:t=P:problem=kropki nad tremolo	!
2r	.	.	2r	.	.	2r	.	.	2r	.	.	4b\	et	.	4g\	et	.	4b\	Et	p	4dd\	Et	p	8G\L	p
.	.	.	.	.	.	.	.	.	.	.	.	.	.	.	.	.	.	.	.	.	.	.	.	8G\	.
.	.	.	.	.	.	.	.	.	.	.	.	16a#X\LL	Je-	.	16b\LL	Je-	.	16dd\LL	Je-	.	16cc#X\LL	Je-	.	8G\	.
.	.	.	.	.	.	.	.	.	.	.	.	16b\	.	.	16cc\	.	.	16ee\	.	.	16dd\	.	.	.	.
.	.	.	.	.	.	.	.	.	.	.	.	16cc\	.	.	16b\	.	.	16dd\	.	.	16ee\	.	.	8G\J	.
.	.	.	.	.	.	.	.	.	.	.	.	16b\JJ	.	.	16a#X\JJ	.	.	16cc#X\JJ	.	.	16dd\JJ	.	.	.	.
8r	.	.	8r	.	.	8r	.	.	8r	.	.	8g\	-sum	.	8b\	-sum	.	8dd\	-sum	.	8b\	-sum	.	8G\	.
!LO:TX:a:i:t=Dolce	!	!	!LO:SIC:v:s=et	!	!	!LO:TX:a:i:t=Dolce	!	!	!LO:TX:a:i:t=Dolce	!	!	!	!	!	!	!	!	!	!	!	!	!	!	!	!
8G\	et	.	8A\	te	.	8B\	et	.	8c\	et	.	8r	.	.	8r	.	.	8r	.	.	8r	.	.	8r	.
8A\	Je-	.	8B\	Je-	.	8cn\	Je-	.	8d\	Je-	.	4r	.	.	4r	.	.	4r	.	.	4r	.	.	4r	.
8B\	-sum	.	8A\	-sum	.	8d\	-sum	.	8cn\	-sum	.	.	.	.	.	.	.	.	.	.	.	.	.	.	.
=27	=27	=27	=27	=27	=27	=27	=27	=27	=27	=27	=27	=27	=27	=27	=27	=27	=27	=27	=27	=27	=27	=27	=27	=27	=27
!	!	!	!	!	!	!	!	!	!	!	!	!	!	!	!	!	!	!LO:TX:a:i:t=Dolce	!	!	!	!	!	!	!
2r	.	.	2r	.	.	2r	.	.	2r	.	.	4a\	et	.	4f#\	et	.	4a\	Et	.	4ccn\	Et	.	8D\L	.
.	.	.	.	.	.	.	.	.	.	.	.	.	.	.	.	.	.	.	.	.	.	.	.	8D\	.
.	.	.	.	.	.	.	.	.	.	.	.	16g#X\LL	Je-	.	16a\LL	Je-	.	16cc\LL	Je-	.	16b\LL	Je-	.	8D\	.
.	.	.	.	.	.	.	.	.	.	.	.	16a\	.	.	16b\	.	.	16dd\	.	.	16ccn\	.	.	.	.
.	.	.	.	.	.	.	.	.	.	.	.	16b\	.	.	16a\	.	.	16ccn\	.	.	16dd\	.	.	8D\J	.
.	.	.	.	.	.	.	.	.	.	.	.	16a\JJ	.	.	16g#X\JJ	.	.	16b\JJ	.	.	16cc\JJ	.	.	.	.
*	*	*	*	*	*	*	*	*	*	*	*	*	*	*	*	*	*	*	*	*	*	*	*	*Xtremolo	*
!	!	!	!	!	!	!	!	!	!	!	!	!	!	!	!	!	!	!	!	!	!	!	!	!LO:TX:t=P:problem=brak pauzy półnutowej	!
8r	.	.	8r	.	.	8r	.	.	8r	.	.	8f#\	-sum	.	8a\	-sum	.	8cc\	-sum	.	8a\	-sum	.	2r	.
8F#\	et	.	8G\	et	.	8A\	et	.	8d\	et	.	8r	.	.	8r	.	.	8r	.	.	8r	.	.	.	.
8G\	Je-	.	8A\	Je-	.	8B\	Je-	.	8c\	Je-	.	4r	.	.	4r	.	.	4r	.	.	4r	.	.	.	.
8A\	-sum	.	8G\	-sum	.	8c\	-sum	.	8B\	-sum	.	.	.	.	.	.	.	.	.	.	.	.	.	.	.
!LO:LB:g=original	!	!	!	!	!	!	!	!	!	!	!	!	!	!	!	!	!	!	!	!	!	!	!	!	!
=28	=28	=28	=28	=28	=28	=28	=28	=28	=28	=28	=28	=28	=28	=28	=28	=28	=28	=28	=28	=28	=28	=28	=28	=28	=28
!	!	!LO:DY:a:rj	!LO:SIC:v:s=8G	!	!LO:DY:a:rj	!	!	!LO:DY:a:rj	!	!	!	!	!	!LO:DY:a:rj	!	!	!LO:DY:a:rj	!	!	!LO:DY:a:rj:t=fo	!	!	!LO:DY:a:rj:t=for	!	!LO:DY:a:rj
8G\	be-	f	8F#\	be-	f	8d\	be-	f	8A\	be-	.	8gn\	be-	f	8gn\	be-	f	8bb\	be-	f	8bb\	be-	f	8G\L	f
8G\	-ne-	.	8G\	-ne-	.	8d\	-ne-	.	8d\	-ne-	.	8g\	-ne-	.	8g\	-ne-	.	8bb\	-ne-	.	8bb\	-ne-	.	8G\	.
8d#X\	-di-	.	8d#X\	-di-	.	8B\	-di-	.	8B\	-di-	.	8f#\	-di-	.	8f#\	-di-	.	8aa\	-di-	.	8aa\	-di-	.	8D#X\	.
8d#\	-ctum	.	8d#\	-ctum	.	8B\	-ctum	.	8B\	-ctum	.	8f#\	-ctum	.	8f#\	-ctum	.	8aa\	-ctum	.	8aa\	-ctum	.	8D#\J	.
!	!	!	!	!	!	!	!	!	!LO:LB:g=original	!	!	!LO:LB:g=original	!	!	!	!	!	!	!	!	!	!	!	!	!
8e\	fru-	.	8e\	fru-	.	8B\	fru-	.	8B\	fru-	.	8b\	fru-	.	8b\	fru-	.	8gg\	fru-	.	8gg\	fru-	.	8e\L	.
8e\	-ctum	.	8e\	-ctum	.	8B\	-ctum	.	8B\	-ctum	.	8b\	-ctum	.	8b\	-ctum	.	8gg\	-ctus	.	8gg\	-ctus	.	8e\	.
8B\	ven-	.	8B\	ven-	.	8B\	ven-	.	8B\	ven-	.	8dd#X\	ven-	.	8dd#X\	ven-	.	8ff#\	ven-	.	8ff#\	ven-	.	8B\	.
8B\	-tris	.	8B\	-tris	.	8B\	-triſ	.	8B\	-triſ	.	8dd#\	-tris	.	8dd#\	-tris	.	8ff#\	-tris	.	8ff#\	-tris	.	8B\J	.
!	!	!	!LO:LB:g=original	!	!	!LO:LB:g=original	!	!	!	!	!	!	!	!	!LO:LB:g=original	!	!	!	!	!	!LO:LB:g=original	!	!	!	!
=29	=29	=29	=29	=29	=29	=29	=29	=29	=29	=29	=29	=29	=29	=29	=29	=29	=29	=29	=29	=29	=29	=29	=29	=29	=29
8c\	tu-	.	8c\	tu-	.	8c\	tu-	.	8c\	tu-	.	8g\	tu-	.	8g\	tu-	.	8ee\	tu-	.	8ee\	tu-	.	8c\L	.
8c\	-i	.	8c\	-i	.	8c\	-i	.	8c\	-i	.	8g\	-i	.	8g\	-i	.	8ee\	-i	.	8ee\	-i	.	8c\	.
4G#X\	no-	.	4G#X\	no-	.	4B\	no-	.	4B\	no-	.	4e\	no-	.	4e\	no-	.	4dd\	no-	.	4dd\	no-	.	8G#X\	.
.	.	.	.	.	.	.	.	.	.	.	.	.	.	.	.	.	.	.	.	.	.	.	.	8G#\J	.
!	!	!	!	!	!	!	!	!	!	!	!	!	!	!	!	!	!	!	!	!	!	!	!	!LO:LB:g=original	!
4A\	-bis	.	4A\	-bis	.	4A\	-bis	.	4A\	-bis	.	4e\	-bis	.	4e\	-bis	.	4ccn\	-bis	.	4ccn\	-bis	.	4A\	.
4r	.	.	4r	.	.	4r	.	.	4r	.	.	4r	.	.	4r	.	.	4r	.	.	4r	.	.	16A\LL	.
.	.	.	.	.	.	.	.	.	.	.	.	.	.	.	.	.	.	.	.	.	.	.	.	16Gn\	.
.	.	.	.	.	.	.	.	.	.	.	.	.	.	.	.	.	.	.	.	.	.	.	.	16F#\	.
.	.	.	.	.	.	.	.	.	.	.	.	.	.	.	.	.	.	.	.	.	.	.	.	16E\JJ	.
!	!	!	!	!	!	!	!	!	!	!	!	!	!	!	!	!	!	!LO:LB:g=original	!	!	!	!	!	!	!
=30	=30	=30	=30	=30	=30	=30	=30	=30	=30	=30	=30	=30	=30	=30	=30	=30	=30	=30	=30	=30	=30	=30	=30	=30	=30
!	!	!	!	!	!	!	!	!	!	!	!	!LO:SIC:v:s=post	!	!	!LO:SIC:v:s=post	!	!	!LO:SIC:v:s=post	!	!	!	!	!	!	!
4d\	post	.	4d\	post	.	4A\	post	.	4A\	post	.	4cc\	pos	.	4cc\	pos	.	4ff#\	pos	.	4ff#\	post	.	8D\L	.
.	.	.	.	.	.	.	.	.	.	.	.	.	.	.	.	.	.	.	.	.	.	.	.	8D\	.
8D\	hoc	.	8D\	hoc	.	8A\	hoc	.	8A\	hoc	.	8cc\	hoc	.	8cc\	hoc	.	8ff#\	hoc	.	8ff#\	hoc	.	8F#\	.
8D\	e-	.	8D\	ex-	.	8A\	e-	.	8A\	e-	.	8cc\	e-	.	8cc\	e-	.	8ff#\	e-	.	8ff#\	e-	.	8F#\J	.
4G\	-xi-	.	4G\	-si-	.	4d\	-xi-	.	4d\	-xi-	.	4b\	-xi-	.	4b\	-xi-	.	4gg\	-xi-	.	4gg\	-xi-	.	8G\L	.
.	.	.	.	.	.	.	.	.	.	.	.	.	.	.	.	.	.	.	.	.	.	.	.	8G\	.
8c\	-li-	.	8c\	-li-	.	8e\	-li-	.	8e\	-li-	.	8cc\	-li-	.	8cc\	-li-	.	8ee\	-li-	.	8ee\	-li-	.	8c\	.
8c\	-um	.	8c\	-um	.	8e\	-um	.	8e\	-um	.	8a\	-um	.	8a\	-um	.	8cc\	-um	.	8cc\	-um	.	8c\J	.
!LO:LB:g=original	!	!	!	!	!	!	!	!	!	!	!	!	!	!	!	!	!	!	!	!	!	!	!	!	!
=31	=31	=31	=31	=31	=31	=31	=31	=31	=31	=31	=31	=31	=31	=31	=31	=31	=31	=31	=31	=31	=31	=31	=31	=31	=31
*	*	*	*	*	*	*	*	*	*	*	*	*	*	*	*	*	*	*	*	*	*	*	*	*^	*
4d\	o-	.	4d\	o-	.	4d\	o-	.	4d\	o-	.	4g\	o-	.	4g\	o-	.	4b\	o-	.	4b\	o-	.	8d\L	2ryy	.
.	.	.	.	.	.	.	.	.	.	.	.	.	.	.	.	.	.	.	.	.	.	.	.	8d\	.	.
4D\	-sten-	.	4D\	-sten-	.	4d\	-sten-	.	4d\	-sten-	.	4f#\	-sten-	.	4f#\	-sten-	.	4a\	-sten-	.	4a\	-sten-	.	8D\	.	.
.	.	.	.	.	.	.	.	.	.	.	.	.	.	.	.	.	.	.	.	.	.	.	.	8D\J	.	.
4G\	-de	.	4G\	-de	.	4d\	-de	.	4d\	-de	.	4g\	-de	.	4g\	-de	.	4b\	-de	.	4b\	-de	.	4G\	4ryy	.
4r	.	.	4r	.	.	4r	.	.	4r	.	.	4r	.	.	4r	.	.	4r	.	.	4r	.	.	4r	4GG/	.
*	*	*	*	*	*	*	*	*	*	*	*	*	*	*	*	*	*	*	*	*	*	*	*	*v	*v	*
!	!	!	!	!	!	!	!	!	!LO:LB:g=original	!	!	!LO:LB:g=original	!	!	!	!	!	!	!	!	!	!	!	!	!
=32	=32	=32	=32	=32	=32	=32	=32	=32	=32	=32	=32	=32	=32	=32	=32	=32	=32	=32	=32	=32	=32	=32	=32	=32	=32
!	!	!LO:DY:a:rj	!	!	!LO:DY:a:rj	!	!	!LO:DY:a:rj	!	!	!LO:DY:a:rj	!	!	!LO:DY:a:rj	!	!	!LO:DY:a:rj	!	!	!LO:DY:a:rj:t=p.	!	!	!LO:DY:a:rj	!	!LO:DY:a:rj
4G\	o	p	4G\	o	p	4d\	O	p	4d\	O	p	4g\	o	p	4g\	o	p	4bb\	O	p	4bb\	O	p	8G\L	p
.	.	.	.	.	.	.	.	.	.	.	.	.	.	.	.	.	.	.	.	.	.	.	.	8G\	.
8d#X\	cle-	.	8d#X\	cle-	.	8B\	cle-	.	8B\	cle-	.	8f#\	cle-	.	8f#\	cle-	.	8aa\	cle-	.	8aa\	cle-	.	8D#X\	.
8d#\	-mens	.	8d#\	-mens	.	8B\	-mens	.	8B\	-mens	.	8f#\	-mens	.	8f#\	-mens	.	8aa\	-mens	.	8aa\	-mens	.	8D#\J	.
4e\	o	.	4e\	o	.	4B\	o	.	4B\	o	.	4b\	o	.	4b\	o	.	4gg\	o	.	4gg\	o	.	8E\L	.
.	.	.	.	.	.	.	.	.	.	.	.	.	.	.	.	.	.	.	.	.	.	.	.	8E\	.
8B\	pi-	.	8B\	pi-	.	8B\	pi-	.	8B\	pi-	.	8dd#X\	pi-	.	8dd#X\	pi-	.	8ff#\	pi-	.	8ff#\	pi-	.	8BB\	.
8B\	-a	.	8B\	-a	.	8B\	-a	.	8B\	-a	.	8dd#\	-a	.	8dd#\	-a	.	8ff#\	-a	.	8ff#\	-a	.	8BB\J	.
!	!	!	!	!	!	!LO:LB:g=original	!	!	!	!	!	!	!	!	!LO:LB:g=original	!	!	!	!	!	!LO:LB:g=original	!	!	!LO:LB:g=original	!
=33	=33	=33	=33	=33	=33	=33	=33	=33	=33	=33	=33	=33	=33	=33	=33	=33	=33	=33	=33	=33	=33	=33	=33	=33	=33
!	!	!	!	!	!	!	!	!	!	!	!	!	!	!	!	!	!	!LO:TX:t=P:4\right:problem	!	!	!	!	!	!LO:TX:t=P:problem=mixed beam	!
4c\	o	.	4c\	o	.	4c\	o	.	4c\	o	.	4g\	o	.	4g\	o	.	4ee\	o	.	4ee\	o	.	8C/L	.
.	.	.	.	.	.	.	.	.	.	.	.	.	.	.	.	.	.	.	.	.	.	.	.	8C/	.
8G#X\	dul-	.	8G#X\	dul-	.	8B\	dul-	.	8B\	dul-	.	8e\	dul-	.	8e\	dul-	.	8dd\	dul-	.	8dd\	dul-	.	8G#X\	.
8G#\	-cis	.	8G#\	-cis	.	8B\	-cis	.	8B\	-cis	.	8e\	-cis	.	8e\	-cis	.	8dd\	-cis	.	8dd\	-cis	.	8G#\J	.
8A\	vir-	.	8A\	vir-	.	8A\	vir-	.	8A\	vir-	.	8e\	vir-	.	8e\	vir-	.	8cc\	vir-	.	8cc\	vir-	.	4A\	.
8A\	-go	.	8A\	-go	.	8A\	-go	.	8A\	-go	.	8e\	-go	.	8e\	-go	.	8cc\	-go	.	8cc\	-go	.	.	.
8r	.	.	8r	.	.	8r	.	.	8r	.	.	8r	.	.	8r	.	.	8r	.	.	8r	.	.	16A\LL	.
.	.	.	.	.	.	.	.	.	.	.	.	.	.	.	.	.	.	.	.	.	.	.	.	16Gn\	.
8D\	o	.	8D\	o	.	8A\	o	.	8A\	o	.	8cc\	o	.	8cc\	o	.	8ff#\	o	.	8ff#\	o	.	16F#\	.
.	.	.	.	.	.	.	.	.	.	.	.	.	.	.	.	.	.	.	.	.	.	.	.	16E\JJ	.
!	!	!	!LO:LB:g=original	!	!	!	!	!	!	!	!	!	!	!	!	!	!	!LO:LB:g=original	!	!	!	!	!	!	!
=34	=34	=34	=34	=34	=34	=34	=34	=34	=34	=34	=34	=34	=34	=34	=34	=34	=34	=34	=34	=34	=34	=34	=34	=34	=34
4D\	dul-	.	4D\	dul-	.	4A\	dul-	.	4A\	dul-	.	4cc\	dul-	.	4cc\	dul-	.	4ff#\	dul-	.	4ff#\	dul-	.	8D\L	.
.	.	.	.	.	.	.	.	.	.	.	.	.	.	.	.	.	.	.	.	.	.	.	.	8D\	.
4F#\	-cis	.	4F#\	-cis	.	4A\	-cis	.	4A\	-cis	.	4cc\	-cis	.	4cc\	-cis	.	4ff#\	-cis	.	4ff#\	-cis	.	8F#\	.
.	.	.	.	.	.	.	.	.	.	.	.	.	.	.	.	.	.	.	.	.	.	.	.	8F#\J	.
4G\	vir-	.	4G\	vir-	.	4d\	vir-	.	4d\	vir-	.	4b\	vir-	.	4b\	vir-	.	4gg\	vir-	.	4gg\	vir-	.	8G\L	.
.	.	.	.	.	.	.	.	.	.	.	.	.	.	.	.	.	.	.	.	.	.	.	.	8G\	.
4c\	-go	.	4c\	-go	.	4e\	-go	.	4e\	-go	.	8cc\L	-go	.	8cc\L	-go	.	8ee\L	-go	.	8ee\L	-go	.	8c\	.
.	.	.	.	.	.	.	.	.	.	.	.	8a\J	.	.	8a\J	.	.	8cc\J	.	.	8cc\J	.	.	8c\J	.
!	!	!	!	!	!	!	!	!	!	!	!	!LO:LB:g=original	!	!	!	!	!	!	!	!	!	!	!	!	!
=35	=35	=35	=35	=35	=35	=35	=35	=35	=35	=35	=35	=35	=35	=35	=35	=35	=35	=35	=35	=35	=35	=35	=35	=35	=35
4d\	Ma-	.	4d\	Ma-	.	4d\	Ma-	.	4d\	Ma-	.	4g\	ma-	.	4g\	ma-	.	4b\	Ma-	.	4b\	Ma-	.	8d\L	.
.	.	.	.	.	.	.	.	.	.	.	.	.	.	.	.	.	.	.	.	.	.	.	.	8d\	.
4D\	-ri-	.	4D\	-ri-	.	4d\	-ri-	.	4d\	-ri-	.	4f#\	-ri-	.	4f#\	-ri-	.	4a\	-ri-	.	4a\	-ri-	.	8D\	.
.	.	.	.	.	.	.	.	.	.	.	.	.	.	.	.	.	.	.	.	.	.	.	.	8D\J	.
8G\	-a	.	8G\	-a	.	8d\	-a	.	8d\	-a	.	8g\	-a	.	8g\	-a	.	8g\	-a	.	8g\	-a	.	8G\	.
!	!	!	!	!	!	!	!	!	!	!	!	!	!	!LO:DY:a:rj	!	!	!	!	!	!	!	!	!LO:DY:a:rj	!	!
4r	.	.	4r	.	.	4r	.	.	8r	.	.	4r	.	pp	8r	.	.	8r	.	.	4r	.	pp	4r	.
!	!	!	!	!	!	!	!	!	!	!	!	!	!	!	!	!	!LO:DY:a:rj	!	!	!	!	!	!	!	!
.	.	.	.	.	.	.	.	.	4r	.	.	.	.	.	4r	.	pp	4r	.	.	.	.	.	.	.
!	!	!LO:DY:a:rj:t=pp	!	!	!	!	!	!LO:DY:a:rj:t=pp	!	!	!	!	!	!	!	!	!	!	!	!	!	!	!	!	!LO:DY:a:rj
8D\	Sal-	pp	8r	.	.	8c\	Sal-	pp	.	.	.	8a\	sal-	.	.	.	.	.	.	.	8ff#\	Sal-	.	8D\	pp
!LO:LB:g=original	!	!	!	!	!	!	!	!	!	!	!	!	!	!	!	!	!	!	!	!	!	!	!	!	!
=36	=36	=36	=36	=36	=36	=36	=36	=36	=36	=36	=36	=36	=36	=36	=36	=36	=36	=36	=36	=36	=36	=36	=36	=36	=36
!	!	!	!	!	!LO:DY:a:rj	!	!	!	!	!	!LO:DY:a:rj	!	!	!	!	!	!	!	!	!LO:DY:a:rj:t=pp	!	!	!	!	!
8G\	-ve	.	8r	.	pp	8d\	-ve	.	8r	.	pp	8b\	-ve	.	8r	.	.	8r	.	pp	8gg\	-ve	.	8G\	.
4r	.	.	8G\	Sal-	.	4r	.	.	8d\	Sal-	.	4r	.	.	8b\	Sal-	.	8gg\	Sal-	.	4r	.	.	4r	.
.	.	.	8D\	-ve	.	.	.	.	8c\	-ve	.	.	.	.	8a\	-ve	.	8ff#\	-ve	.	.	.	.	.	.
8D\	Sal-	.	8D\	Sal-	.	8c\	Sal-	.	8c\	Sal-	.	8a\	sal-	.	8a\	Sal-	.	8ff#\	Sal-	.	8ff#\	Sal-	.	8D\	.
8G\	-ve	.	8G\	-ve	.	8d\	-ve	.	8d\	-ve	.	8b\	-ve	.	8b\	-ve	.	8gg\	-ve	.	8gg\	-ve	.	8G\	.
8r	.	.	8r	.	.	8r	.	.	8r	.	.	8r	.	.	8r	.	.	8r	.	.	8r	.	.	8r	.
!LO:TX:a:t=1836	!	!	!LO:TX:a:t=1836	!	!	!	!	!	!LO:TX:b:t=1836	!	!	!LO:TX:b:t=1836	!	!	!LO:TX:b:t=1836	!	!	!LO:TX:b:t=1836	!	!	!LO:TX:b:t=1836	!	!	!LO:TX:b:t=1836	!
4r	.	.	4r	.	.	4r	.	.	4r	.	.	4r	.	.	4r	.	.	4r	.	.	4r	.	.	4r	.
==	==	==	==	==	==	==	==	==	==	==	==	==	==	==	==	==	==	==	==	==	==	==	==	==	==
*-	*-	*-	*-	*-	*-	*-	*-	*-	*-	*-	*-	*-	*-	*-	*-	*-	*-	*-	*-	*-	*-	*-	*-	*-	*-
!!!system-decoration: [(s1)][(s2,s3,s4,s5,s6,s7,s8,s9)]
!!!RDF**dynam: p = p.
!!!RDF**dynam: pp = pp.
!!!RDF**dynam: f = for
!!!RDF**dynam: < = cres
!!!ENC: Andrzej Kubiczek
!!!END: 2020-08-12
!!!AIN: 9 empty
!!!ENC: Leszek Kubiak
!!!END: 2022-03-11
